;FLAVOR:Marlin
;TIME:282
;Filament used: 0.234185m
;Layer height: 0.2
;MINX:89.026
;MINY:89.026
;MINZ:0.2
;MAXX:120.969
;MAXY:120.972
;MAXZ:5
;Generated with Cura_SteamEngine 4.10.0
M140 S60
M105
M190 S60
M104 S200
M105
M109 S200
M82 ;absolute extrusion mode
G21 ;metric values
G90 ;absolute positioning
M82 ;set extruder to absolute mode
M107 ;start with the fan off
G28 X0 Y0 ;move X/Y to min endstops
G28 Z0 ;move Z to min endstops
G1 Z15.0 F100 ;move the platform down 15mm
G92 E0 ;zero the extruded length
G1 F200 E3 ;extrude 3mm of feed stock
G92 E0 ;zero the extruded length again
G1 F100
G0 Y20 F100
M117 Printing...
G5
G92 E0
G92 E0
G1 F2400 E-6
;LAYER_COUNT:25
;LAYER:0
M107
M204 S3000
M205 X10 Y10
G1 F600 Z0.275
G0 F3000 X91.16 Y91.267 Z0.275
M204 S1800
M205 X8 Y8
;TYPE:SKIRT
G1 F600 Z0.2
G1 F2400 E0
G1 X91.31 Y91.123 E0.00968
G1 X91.853 Y90.657 E0.043
G1 X92.457 Y90.247 E0.07699
G1 X92.559 Y90.186 E0.08253
G1 X93.44 Y89.748 E0.12834
G1 X93.63 Y89.671 E0.13789
G1 X94.458 Y89.399 E0.17847
G1 X94.58 Y89.368 E0.18433
G1 X95.281 Y89.231 E0.21759
G1 X95.549 Y89.194 E0.23019
G1 X96.439 Y89.134 E0.27172
G1 X97.684 Y89.137 E0.3297
G1 X100.416 Y89.105 E0.45692
G1 X101.948 Y89.044 E0.52831
G1 X102.579 Y89.027 E0.5577
G1 X102.826 Y89.026 E0.5692
G1 X103.523 Y89.061 E0.6017
G1 X103.76 Y89.086 E0.6128
G1 X104.39 Y89.185 E0.64249
G1 X104.52 Y89.212 E0.64868
G1 X105.213 Y89.396 E0.68206
G1 X105.923 Y89.645 E0.7171
G1 X106.291 Y89.794 E0.73558
G1 X106.803 Y90.028 E0.7618
G1 X107.274 Y90.278 E0.78663
G1 X107.752 Y90.563 E0.81254
G1 X108.252 Y90.893 E0.84044
G1 X108.543 Y91.109 E0.85731
G1 X109.024 Y91.487 E0.8858
G1 X109.528 Y91.914 E0.91656
G1 X110.061 Y92.411 E0.95049
G1 X110.655 Y93.028 E0.99037
G1 X111.072 Y93.509 E1.02001
G1 X111.401 Y93.917 E1.04442
G1 X111.722 Y94.339 E1.06911
G1 X112.041 Y94.798 E1.09514
G1 X112.415 Y95.377 E1.12723
G1 X112.747 Y95.943 E1.15779
G1 X113.083 Y96.573 E1.19103
G1 X113.303 Y97.021 E1.21427
G1 X114.421 Y99.418 E1.33743
G1 X115.617 Y101.805 E1.46175
G1 X116.852 Y104.103 E1.58323
G1 X118.194 Y106.439 E1.70868
G1 X119.769 Y109.011 E1.84911
G1 X119.958 Y109.337 E1.86666
G1 X120.053 Y109.517 E1.87613
G1 X120.311 Y110.067 E1.90442
G1 X120.458 Y110.424 E1.9224
G1 X120.693 Y111.1 E1.95572
G1 X120.851 Y111.797 E1.989
G1 X120.939 Y112.536 E2.02366
G1 X120.969 Y113.251 E2.05698
G1 X120.92 Y113.965 E2.0903
G1 X120.791 Y114.668 E2.12359
G1 X120.572 Y115.385 E2.1585
G1 X120.481 Y115.631 E2.17071
G1 X120.196 Y116.287 E2.20401
G1 X119.84 Y116.907 E2.2373
G1 X119.39 Y117.515 E2.27253
G1 X119.202 Y117.74 E2.28618
G1 X118.714 Y118.262 E2.31945
G1 X118.161 Y118.743 E2.35358
G1 X117.379 Y119.304 E2.39839
G1 X116.775 Y119.654 E2.4309
G1 X116.023 Y120.027 E2.46999
G1 X115.576 Y120.221 E2.49268
G1 X114.928 Y120.462 E2.52487
G1 X114.301 Y120.645 E2.55528
G1 X114.059 Y120.705 E2.56689
G1 X113.531 Y120.813 E2.59199
G1 X113.125 Y120.878 E2.61113
G1 X112.617 Y120.938 E2.63495
G1 X111.879 Y120.972 E2.66935
G1 X111.206 Y120.953 E2.7007
G1 X110.521 Y120.889 E2.73274
G1 X110.2 Y120.841 E2.74785
G1 X109.563 Y120.732 E2.77794
G1 X107.79 Y120.403 E2.86191
G1 X106.491 Y120.192 E2.92319
G1 X105.933 Y120.08 E2.94969
G1 X105.558 Y119.989 E2.96766
G1 X105.06 Y119.847 E2.99177
G1 X104.46 Y119.635 E3.02141
G1 X103.99 Y119.431 E3.04526
G1 X103.39 Y119.142 E3.07627
G1 X102.927 Y118.895 E3.10071
G1 X102.462 Y118.604 E3.12625
G1 X101.113 Y117.68 E3.20239
G1 X100.36 Y117.144 E3.24543
G1 X97.362 Y115.151 E3.41306
G1 X96.983 Y114.909 E3.434
G1 X96.403 Y114.492 E3.46726
G1 X95.873 Y114.011 E3.50059
G1 X95.399 Y113.475 E3.53391
G1 X94.989 Y112.889 E3.56721
G1 X94.646 Y112.261 E3.60053
G1 X94.359 Y111.55 E3.63623
G1 X94.111 Y110.808 E3.67266
G1 X93.728 Y109.611 E3.73118
G1 X92.84 Y107.085 E3.85586
G1 X91.899 Y104.634 E3.97811
G1 X90.873 Y102.17 E4.10239
G1 X89.691 Y99.541 E4.23661
G1 X89.376 Y98.681 E4.27926
G1 X89.296 Y98.402 E4.29278
G1 X89.09 Y97.374 E4.3416
G1 X89.068 Y97.184 E4.3505
G1 X89.026 Y96.47 E4.38381
G1 X89.047 Y95.897 E4.41051
G1 X89.126 Y95.186 E4.44382
G1 X89.349 Y94.273 E4.48758
G1 X89.434 Y94.011 E4.5004
G1 X89.693 Y93.344 E4.53372
G1 X90.024 Y92.71 E4.56703
G1 X90.315 Y92.263 E4.59186
G1 X90.752 Y91.696 E4.62519
G1 X91.16 Y91.267 E4.65276
M204 S3000
M205 X10 Y10
G0 F3000 X91.548 Y91.671
M204 S1800
M205 X8 Y8
G1 F2400 X91.698 Y91.527 E4.66244
G1 X92.217 Y91.084 E4.69422
G1 X92.745 Y90.728 E4.72387
G1 X92.847 Y90.667 E4.7294
G1 X93.651 Y90.267 E4.77122
G1 X93.841 Y90.19 E4.78077
G1 X94.596 Y89.942 E4.81777
G1 X94.718 Y89.911 E4.82363
G1 X95.357 Y89.786 E4.85395
G1 X95.625 Y89.749 E4.86655
G1 X96.437 Y89.694 E4.90444
G1 X97.689 Y89.697 E4.96274
G1 X100.446 Y89.665 E5.09113
G1 X101.965 Y89.604 E5.16192
G1 X102.581 Y89.587 E5.19061
G1 X102.828 Y89.586 E5.20211
G1 X103.465 Y89.618 E5.23181
G1 X103.702 Y89.643 E5.24291
G1 X104.277 Y89.733 E5.27001
G1 X104.407 Y89.76 E5.27619
G1 X105.038 Y89.929 E5.30661
G1 X105.713 Y90.164 E5.33989
G1 X106.081 Y90.313 E5.35838
G1 X106.548 Y90.526 E5.38228
G1 X106.993 Y90.763 E5.40575
G1 X107.45 Y91.034 E5.43049
G1 X107.926 Y91.349 E5.45707
G1 X108.196 Y91.549 E5.47272
G1 X108.677 Y91.927 E5.5012
G1 X109.15 Y92.328 E5.53008
G1 X109.666 Y92.806 E5.56283
G1 X110.247 Y93.411 E5.60189
G1 X110.636 Y93.86 E5.62955
G1 X110.965 Y94.268 E5.65396
G1 X111.272 Y94.674 E5.67766
G1 X111.579 Y95.114 E5.70264
G1 X111.944 Y95.679 E5.73396
G1 X112.254 Y96.209 E5.76255
G1 X112.581 Y96.822 E5.7949
G1 X112.796 Y97.257 E5.8175
G1 X113.935 Y99.698 E5.94293
G1 X115.105 Y102.034 E6.06458
G1 X116.374 Y104.396 E6.18943
G1 X117.708 Y106.717 E6.31409
G1 X119.113 Y109.012 E6.43939
G1 X119.463 Y109.598 E6.47117
G1 X119.558 Y109.778 E6.48065
G1 X119.793 Y110.28 E6.50646
G1 X119.94 Y110.637 E6.52444
G1 X120.163 Y111.283 E6.55626
G1 X120.352 Y112.287 E6.60383
G1 X120.382 Y112.591 E6.61805
G1 X120.409 Y113.274 E6.64988
G1 X120.356 Y113.955 E6.68169
G1 X120.224 Y114.626 E6.71353
G1 X120.047 Y115.191 E6.7411
G1 X119.956 Y115.437 E6.75331
G1 X119.682 Y116.063 E6.78513
G1 X119.337 Y116.652 E6.81692
G1 X118.961 Y117.156 E6.8462
G1 X118.773 Y117.381 E6.85985
G1 X118.305 Y117.878 E6.89164
G1 X117.801 Y118.314 E6.92267
G1 X117.088 Y118.826 E6.96354
G1 X116.517 Y119.157 E6.99428
G1 X115.8 Y119.513 E7.03155
G1 X115.353 Y119.707 E7.05424
G1 X114.762 Y119.927 E7.08361
G1 X114.166 Y120.101 E7.11252
G1 X113.442 Y120.26 E7.14703
G1 X112.573 Y120.38 E7.18788
G1 X111.865 Y120.412 E7.22088
G1 X111.251 Y120.395 E7.24948
G1 X110.596 Y120.334 E7.28011
G1 X110.294 Y120.289 E7.29433
G1 X109.665 Y120.181 E7.32405
G1 X107.897 Y119.853 E7.40778
G1 X106.587 Y119.64 E7.46958
G1 X106.065 Y119.536 E7.49436
G1 X105.235 Y119.315 E7.53436
G1 X104.669 Y119.116 E7.5623
G1 X104.233 Y118.926 E7.58444
G1 X103.633 Y118.637 E7.61545
G1 X103.119 Y118.359 E7.64266
G1 X102.778 Y118.142 E7.66148
G1 X101.437 Y117.224 E7.73716
G1 X100.67 Y116.678 E7.781
G1 X97.642 Y114.665 E7.95031
G1 X97.285 Y114.437 E7.97003
G1 X96.731 Y114.037 E8.00185
G1 X96.228 Y113.574 E8.03368
G1 X95.783 Y113.056 E8.06548
G1 X95.401 Y112.489 E8.09732
G1 X95.088 Y111.882 E8.12912
G1 X94.89 Y111.372 E8.15459
G1 X94.644 Y110.637 E8.19068
G1 X94.248 Y109.4 E8.25116
G1 X93.375 Y106.918 E8.37367
G1 X92.414 Y104.414 E8.49856
G1 X91.399 Y101.975 E8.62157
G1 X90.201 Y99.311 E8.75759
G1 X89.914 Y98.527 E8.79646
G1 X89.834 Y98.248 E8.80998
G1 X89.647 Y97.31 E8.85451
G1 X89.625 Y97.12 E8.86342
G1 X89.595 Y96.127 E8.90968
G1 X89.606 Y95.927 E8.91901
G1 X89.683 Y95.248 E8.95083
G1 X89.882 Y94.446 E8.9893
G1 X89.967 Y94.184 E9.00213
G1 X90.216 Y93.547 E9.03398
G1 X90.707 Y92.681 E9.08033
G1 X90.777 Y92.579 E9.08609
G1 X91.196 Y92.04 E9.11788
G1 X91.548 Y91.671 E9.14163
M204 S3000
M205 X10 Y10
G0 F3000 X92.085 Y91.931
M204 S1800
M205 X8 Y8
G1 F2400 X92.581 Y91.511 E9.17189
G1 X93.032 Y91.209 E9.19717
G1 X93.134 Y91.148 E9.2027
G1 X93.861 Y90.786 E9.24052
G1 X94.051 Y90.709 E9.25006
G1 X94.734 Y90.485 E9.28353
G1 X94.856 Y90.454 E9.28939
G1 X95.434 Y90.341 E9.31682
G1 X95.702 Y90.304 E9.32941
G1 X96.436 Y90.254 E9.36367
G1 X97.694 Y90.257 E9.42225
G1 X100.439 Y90.225 E9.55008
G1 X101.982 Y90.163 E9.62198
G1 X102.584 Y90.147 E9.65003
G1 X102.831 Y90.146 E9.66153
G1 X103.406 Y90.175 E9.68834
G1 X103.643 Y90.2 E9.69943
G1 X104.163 Y90.281 E9.72394
G1 X104.293 Y90.308 E9.73012
G1 X104.864 Y90.461 E9.75765
G1 X105.503 Y90.683 E9.78915
G1 X106.293 Y91.025 E9.82923
G1 X106.945 Y91.382 E9.86384
G1 X107.381 Y91.656 E9.88782
G1 X107.85 Y91.99 E9.91463
G1 X108.331 Y92.368 E9.94312
G1 X108.772 Y92.741 E9.97001
G1 X109.27 Y93.202 E10.00161
G1 X109.838 Y93.794 E10.03981
G1 X110.2 Y94.212 E10.06556
G1 X110.529 Y94.62 E10.08997
G1 X110.946 Y95.18 E10.12248
G1 X111.472 Y95.98 E10.16706
G1 X111.761 Y96.475 E10.19375
G1 X112.08 Y97.071 E10.22523
G1 X112.288 Y97.494 E10.24718
G1 X113.413 Y99.907 E10.37115
G1 X114.617 Y102.309 E10.49626
G1 X115.897 Y104.69 E10.62214
G1 X117.215 Y106.985 E10.74537
G1 X118.639 Y109.311 E10.87236
G1 X118.968 Y109.86 E10.90217
G1 X119.063 Y110.04 E10.91164
G1 X119.275 Y110.494 E10.93497
G1 X119.422 Y110.851 E10.95295
G1 X119.632 Y111.465 E10.98317
G1 X119.794 Y112.342 E11.0247
G1 X119.824 Y112.646 E11.03892
G1 X119.848 Y113.296 E11.06921
G1 X119.792 Y113.943 E11.09945
G1 X119.657 Y114.578 E11.12968
G1 X119.431 Y115.243 E11.16238
G1 X119.169 Y115.837 E11.19261
G1 X118.835 Y116.395 E11.22289
G1 X118.531 Y116.796 E11.24632
G1 X118.343 Y117.021 E11.25998
G1 X117.683 Y117.683 E11.3035
G1 X117.442 Y117.885 E11.31815
G1 X116.797 Y118.347 E11.35509
G1 X116.26 Y118.66 E11.38403
G1 X115.577 Y119 E11.41956
G1 X115.13 Y119.194 E11.44225
G1 X114.595 Y119.392 E11.46881
G1 X114.032 Y119.558 E11.49614
G1 X113.354 Y119.707 E11.52847
G1 X112.529 Y119.822 E11.56725
G1 X111.851 Y119.852 E11.59886
G1 X111.296 Y119.837 E11.62471
G1 X110.672 Y119.779 E11.65389
G1 X110.389 Y119.737 E11.66721
G1 X109.767 Y119.63 E11.6966
G1 X107.996 Y119.301 E11.78048
G1 X106.683 Y119.088 E11.84241
G1 X105.822 Y118.901 E11.88344
G1 X105.193 Y118.712 E11.91402
G1 X104.476 Y118.422 E11.95004
G1 X103.876 Y118.133 E11.98105
G1 X103.402 Y117.876 E12.00615
G1 X103.094 Y117.68 E12.02315
G1 X101.762 Y116.768 E12.09832
G1 X100.973 Y116.206 E12.14343
G1 X97.977 Y114.214 E12.31096
G1 X97.586 Y113.965 E12.33254
G1 X97.061 Y113.583 E12.36277
G1 X96.587 Y113.139 E12.39302
G1 X96.171 Y112.64 E12.42327
G1 X95.819 Y112.093 E12.45356
G1 X95.538 Y111.508 E12.48378
G1 X95.421 Y111.194 E12.49938
G1 X95.178 Y110.466 E12.53512
G1 X94.789 Y109.252 E12.59448
G1 X93.895 Y106.709 E12.71999
G1 X92.939 Y104.218 E12.84423
G1 X91.912 Y101.751 E12.96866
G1 X90.712 Y99.082 E13.10493
G1 X90.453 Y98.372 E13.14012
G1 X90.373 Y98.093 E13.15363
G1 X90.203 Y97.245 E13.19391
G1 X90.181 Y97.055 E13.20281
G1 X90.154 Y96.158 E13.2446
G1 X90.165 Y95.958 E13.25393
G1 X90.24 Y95.313 E13.28416
G1 X90.415 Y94.619 E13.31749
G1 X90.5 Y94.357 E13.33032
G1 X90.738 Y93.752 E13.36059
G1 X91.169 Y92.998 E13.40103
G1 X91.239 Y92.896 E13.40679
G1 X91.638 Y92.384 E13.43701
G1 X92.085 Y91.931 E13.46665
M204 S3000
M205 X10 Y10
G1 F2400 E7.46665
;MESH:??????????????????????????????????????????.stl
G0 F3000 X95.055 Y97.48
G0 X96.126 Y98.242
G0 X99.249 Y98.165
G0 X100.572 Y97.877
G0 X104.1 Y106.265
G0 X104.472 Y107.54
G0 X107.224 Y108.188
G0 X107.263 Y104.159
M204 S1800
M205 X8 Y8
;TYPE:WALL-INNER
G1 F2400 E13.46665
G1 F1500 X107.318 Y104.625 E13.4885
G1 X107.244 Y104.163 E13.48882
G1 X107.174 Y103.726 E13.50943
G1 X107.146 Y103.54 E13.51818
G1 X107.052 Y102.935 E13.54669
G1 X107.01 Y102.669 E13.55923
G1 X107.068 Y102.932 E13.55941
G1 X107.175 Y103.535 E13.56056
G1 X107.201 Y103.722 E13.561
G1 X107.263 Y104.159 E13.56182
M204 S3000
M205 X10 Y10
G0 F3000 X107.224 Y108.188
G0 X104.119 Y109.012
M204 S1800
M205 X8 Y8
G1 F1500 X104.06 Y109.166 E13.5695
G1 X103.936 Y109.02 E13.57244
G1 X103.84 Y108.907 E13.57581
G1 X103.838 Y108.801 E13.57837
G1 X103.82 Y107.85 E13.62266
G1 X104.189 Y108.765 E13.63817
G1 X104.201 Y108.794
G1 X104.119 Y109.012 E13.64437
M204 S3000
M205 X10 Y10
G0 F3000 X108.235 Y108.683
M204 S1800
M205 X8 Y8
G1 F1500 X108.255 Y108.742 E13.64727
G1 X108.256 Y108.745 E13.64742
G1 X108.496 Y109.426 E13.68104
G1 X108.587 Y109.687 E13.69391
G1 X108.768 Y110.201 E13.71928
G1 X108.786 Y110.247 E13.72158
G1 X108.904 Y110.543 E13.73642
G1 X108.693 Y110.285 E13.73827
G1 X108.207 Y109.821 E13.75464
G1 X107.992 Y109.648 E13.76574
G1 X107.609 Y109.339 E13.78865
G1 X107.145 Y109.003 E13.81533
G1 X106.998 Y108.901 E13.82366
G1 X106.681 Y108.683 E13.84157
G1 X104.842 Y108.683 E13.92721
G1 X104.486 Y109.624 E13.97405
G1 X104.401 Y109.959 E13.99015
G1 X104.394 Y109.987 E13.99149
G1 X104.331 Y110.233 E14.00332
G1 X104.318 Y110.391 E14.0107
G1 X104.31 Y110.474 E14.01458
G1 X104.246 Y110.385 E14.01574
G1 X104.203 Y110.323
G1 X103.878 Y109.856 E14.03541
G1 X103.861 Y109.833 E14.03671
G1 X103.509 Y109.365 E14.06398
G1 X103.044 Y108.921 E14.09391
G1 X103.042 Y108.919 E14.09405
G1 X103.035 Y108.916 E14.0944
G1 X102.824 Y108.807 E14.10546
G1 X102.43 Y108.604 E14.1261
G1 X101.728 Y108.486 E14.15924
G1 X101.271 Y108.516 E14.18057
G1 X101.26 Y108.517 E14.18108
G1 X101.26 Y108.486
G1 X101.26 Y108.363
G1 X101.728 Y108.363 E14.18665
G1 X102.43 Y108.363 E14.19721
G1 X102.873 Y108.363 E14.21213
G1 X103.034 Y108.363 E14.21962
G1 X103.042 Y108.363 E14.21999
G1 X103.046 Y108.363 E14.22018
G1 X103.101 Y108.363 E14.22274
G1 X103.27 Y108.363 E14.23061
G1 X103.267 Y108.194 E14.23567
G1 X103.249 Y107.207 E14.28164
G1 X103.161 Y106.537 E14.31311
G1 X103.059 Y105.96 E14.34039
G1 X102.928 Y105.29 E14.37218
G1 X102.758 Y104.497 E14.40994
G1 X102.556 Y103.611 E14.45226
G1 X102.32 Y102.644 E14.49861
G1 X102.182 Y102.114 E14.52411
G1 X101.899 Y101.079 E14.57407
G1 X101.588 Y100.043 E14.62444
G1 X101.45 Y99.619 E14.6452
G1 X101.422 Y99.532 E14.64946
G1 X101.327 Y99.259 E14.66292
G1 X101.248 Y99.035 E14.67398
G1 X101.163 Y98.818 E14.68483
G1 X101.008 Y98.422 E14.70463
G1 X100.888 Y98.116 E14.71994
G1 X100.805 Y97.939 E14.72904
G1 X100.935 Y98.067 E14.72937
G1 X101.215 Y98.34 E14.73544
G1 X101.501 Y98.685 E14.74671
G1 X101.581 Y98.799 E14.75052
G1 X101.791 Y99.096 E14.76472
G1 X101.885 Y99.255 E14.77243
G1 X101.932 Y99.333 E14.77659
G1 X102.044 Y99.52 E14.78674
G1 X102.276 Y99.977 E14.81061
G1 X102.496 Y100.483 E14.8363
G1 X102.684 Y100.983 E14.86117
G1 X102.842 Y101.47 E14.88501
G1 X103 Y102.014 E14.91139
G1 X103.133 Y102.529 E14.93616
G1 X103.257 Y103.061 E14.96159
G1 X103.372 Y103.584 E14.98653
G1 X103.763 Y105.5 E15.07759
G1 X103.945 Y106.311 E15.11629
G1 X104.13 Y107.012 E15.15005
G1 X104.322 Y107.597 E15.17872
G1 X104.631 Y108.363 E15.21718
G1 X104.842 Y108.363 E15.22517
G1 X106.681 Y108.363 E15.27411
G1 X107.066 Y108.363 E15.28837
G1 X107.098 Y108.363 E15.28986
G1 X107.099 Y108.363 E15.2899
G1 X107.437 Y108.363 E15.30564
G1 X107.374 Y108.031 E15.31531
G1 X107.373 Y108.03 E15.31537
G1 X107.081 Y106.515 E15.38722
G1 X106.923 Y105.644 E15.42844
G1 X106.77 Y104.743 E15.47099
G1 X106.621 Y103.815 E15.51476
G1 X106.473 Y102.862 E15.55966
G1 X106.185 Y100.963 E15.6491
G1 X106.03 Y99.994 E15.69479
G1 X105.985 Y99.745 E15.70658
G1 X105.978 Y99.701 E15.70865
G1 X105.87 Y99.091 E15.7375
G1 X105.866 Y99.074 E15.73831
G1 X105.748 Y98.524 E15.7645
G1 X105.716 Y98.38 E15.77137
G1 X105.819 Y98.508 E15.77241
G1 X106.098 Y98.913 E15.77882
G1 X106.183 Y99.035 E15.78167
G1 X106.517 Y99.605 E15.80572
G1 X106.536 Y99.645 E15.80776
G1 X106.813 Y100.203 E15.83677
G1 X107.076 Y100.847 E15.86916
G1 X107.293 Y101.496 E15.90102
G1 X107.464 Y102.124 E15.93133
G1 X107.615 Y102.812 E15.96413
G1 X107.729 Y103.457 E15.99463
G1 X107.819 Y104.093 E16.02454
G1 X107.893 Y104.716 E16.05375
G1 X108.042 Y106.126 E16.11977
G1 X108.136 Y106.846 E16.15359
G1 X108.259 Y107.479 E16.18361
G1 X108.488 Y108.138 E16.2161
G1 X108.497 Y108.164 E16.21738
G1 X108.592 Y108.312 E16.22557
G1 X108.642 Y108.391 E16.22992
G1 X108.656 Y108.414 E16.23117
G1 X108.701 Y108.484 E16.23505
G1 X108.743 Y108.529 E16.23792
G1 X108.869 Y108.663 E16.24648
G1 X108.888 Y108.683 E16.24777
G1 X108.767 Y108.683 E16.2534
G1 X108.701 Y108.683 E16.25647
G1 X108.497 Y108.683 E16.26271
