;FLAVOR:Marlin
;TIME:1120
;Filament used: 1.05185m
;Layer height: 0.2
;MINX:73.619
;MINY:73.618
;MINZ:0.2
;MAXX:136.383
;MAXY:136.39
;MAXZ:5
;Generated with Cura_SteamEngine 4.10.0
M140 S60
M105
M190 S60
M104 S200
M105
M109 S200
M82 ;absolute extrusion mode
G21 ;metric values
G90 ;absolute positioning
M82 ;set extruder to absolute mode
M107 ;start with the fan off
G28 X0 Y0 ;move X/Y to min endstops
G28 Z0 ;move Z to min endstops
G1 Z15.0 F100 ;move the platform down 15mm
G92 E0 ;zero the extruded length
G1 F200 E3 ;extrude 3mm of feed stock
G92 E0 ;zero the extruded length again
G1 F100
G0 Y20 F100
M117 Printing...
G5
G92 E0
G92 E0
G1 F2400 E-6
;LAYER_COUNT:25
;LAYER:0
M107
M204 S3000
M205 X10 Y10
G1 F600 Z0.275
G0 F3000 X76.183 Y78.865 Z0.275
M204 S1800
M205 X8 Y8
;TYPE:SKIRT
G1 F600 Z0.2
G1 F2400 E0
G1 X76.614 Y78.49 E0.0266
G1 X77.356 Y77.945 E0.06947
G1 X77.925 Y77.607 E0.10029
G1 X78.622 Y77.261 E0.13652
G1 X79.308 Y76.993 E0.17082
G1 X79.906 Y76.804 E0.20002
G1 X80.697 Y76.616 E0.23788
G1 X81.216 Y76.522 E0.26244
G1 X81.917 Y76.437 E0.29532
G1 X82.27 Y76.408 E0.31181
G1 X83.225 Y76.355 E0.35635
G1 X85.939 Y76.167 E0.48303
G1 X88.575 Y75.91 E0.60635
G1 X91.222 Y75.576 E0.73058
G1 X93.824 Y75.172 E0.8532
G1 X96.42 Y74.694 E0.97611
G1 X98.986 Y74.147 E1.09828
G1 X99.4 Y74.047 E1.11811
G1 X100.314 Y73.842 E1.16173
G1 X100.867 Y73.736 E1.18794
G1 X101.704 Y73.64 E1.22717
G1 X102.161 Y73.618 E1.24848
G1 X103.153 Y73.648 E1.29469
G1 X103.782 Y73.733 E1.32425
G1 X104.646 Y73.927 E1.36548
G1 X104.911 Y74.006 E1.37836
G1 X105.75 Y74.321 E1.42009
G1 X106.182 Y74.519 E1.44221
G1 X107.006 Y74.973 E1.48602
G1 X107.433 Y75.258 E1.50993
G1 X107.894 Y75.608 E1.53688
G1 X108.452 Y76.088 E1.57115
G1 X108.63 Y76.255 E1.58252
G1 X108.984 Y76.615 E1.60603
G1 X109.373 Y77.053 E1.6333
G1 X109.739 Y77.503 E1.66031
G1 X110.04 Y77.909 E1.68385
G1 X110.346 Y78.361 E1.70926
G1 X110.677 Y78.894 E1.73848
G1 X111.067 Y79.592 E1.77571
G1 X111.491 Y80.446 E1.82011
G1 X111.605 Y80.686 E1.83248
G1 X111.909 Y81.368 E1.86725
G1 X112.173 Y82.007 E1.89944
G1 X112.245 Y82.188 E1.90851
G1 X112.521 Y82.925 E1.94516
G1 X112.737 Y83.547 E1.97582
G1 X113.67 Y86.131 E2.10374
G1 X114.632 Y88.577 E2.22613
G1 X115.67 Y91.012 E2.34939
G1 X116.783 Y93.429 E2.47329
G1 X117.961 Y95.811 E2.59703
G1 X119.184 Y98.116 E2.71853
G1 X120.516 Y100.464 E2.84423
G1 X121.863 Y102.687 E2.96527
G1 X123.306 Y104.926 E3.0893
G1 X124.806 Y107.112 E3.21275
G1 X126.325 Y109.202 E3.33306
G1 X126.846 Y109.899 E3.37358
G1 X127.177 Y110.382 E3.40084
G1 X127.32 Y110.611 E3.41341
G1 X128.753 Y112.839 E3.53676
G1 X130.255 Y115.035 E3.66065
G1 X131.813 Y117.18 E3.78409
G1 X133.209 Y118.981 E3.8902
G1 X133.313 Y119.133 E3.89878
G1 X133.932 Y119.92 E3.9454
G1 X134.172 Y120.247 E3.96429
G1 X134.619 Y120.897 E4.00102
G1 X134.937 Y121.409 E4.02908
G1 X135.32 Y122.114 E4.06644
G1 X135.458 Y122.396 E4.08106
G1 X135.669 Y122.876 E4.10548
G1 X135.824 Y123.272 E4.12528
G1 X135.997 Y123.775 E4.15005
G1 X136.034 Y123.899 E4.15607
G1 X136.165 Y124.416 E4.18091
G1 X136.243 Y124.788 E4.19861
G1 X136.373 Y125.824 E4.24723
G1 X136.383 Y126.055 E4.25799
G1 X136.374 Y126.77 E4.29129
G1 X136.279 Y127.568 E4.32871
G1 X136.14 Y128.27 E4.36203
G1 X135.934 Y128.936 E4.39449
G1 X135.666 Y129.599 E4.42779
G1 X135.429 Y130.055 E4.45172
G1 X135.244 Y130.378 E4.46905
G1 X134.699 Y131.18 E4.5142
G1 X134.532 Y131.39 E4.5267
G1 X134.132 Y131.847 E4.55498
G1 X133.753 Y132.221 E4.57977
G1 X133.094 Y132.802 E4.62068
G1 X132.588 Y133.192 E4.65043
G1 X132.157 Y133.491 E4.67485
G1 X131.553 Y133.874 E4.70816
G1 X131.11 Y134.128 E4.73193
G1 X130.734 Y134.325 E4.7517
G1 X129.923 Y134.722 E4.79375
G1 X129.54 Y134.894 E4.8133
G1 X128.819 Y135.19 E4.84959
G1 X128.402 Y135.345 E4.8703
G1 X127.482 Y135.65 E4.91543
G1 X126.845 Y135.836 E4.94633
G1 X126.313 Y135.966 E4.97184
G1 X125.746 Y136.086 E4.99882
G1 X125.38 Y136.153 E5.01615
G1 X124.859 Y136.232 E5.04069
G1 X124.022 Y136.325 E5.0799
G1 X123.237 Y136.372 E5.11652
G1 X122.582 Y136.39 E5.14703
G1 X121.657 Y136.355 E5.19013
G1 X120.987 Y136.293 E5.22146
G1 X120.383 Y136.21 E5.24985
G1 X120.101 Y136.163 E5.26316
G1 X119.089 Y135.969 E5.31114
G1 X117.552 Y135.65 E5.38424
G1 X114.959 Y135.189 E5.50687
G1 X112.344 Y134.801 E5.62997
G1 X111.024 Y134.635 E5.69192
G1 X110.518 Y134.563 E5.71572
G1 X110.01 Y134.476 E5.73972
G1 X109.43 Y134.357 E5.76729
G1 X108.756 Y134.187 E5.79966
G1 X107.977 Y133.951 E5.83756
G1 X107.686 Y133.853 E5.85186
G1 X107.198 Y133.674 E5.87606
G1 X106.718 Y133.478 E5.9002
G1 X106.554 Y133.405 E5.90856
G1 X105.833 Y133.073 E5.94552
G1 X105.273 Y132.797 E5.97459
G1 X104.831 Y132.561 E5.99792
G1 X104.145 Y132.157 E6.03499
G1 X103.968 Y132.046 E6.04472
G1 X103.089 Y131.475 E6.09353
G1 X102.577 Y131.117 E6.12262
G1 X102.07 Y130.74 E6.15204
G1 X99.89 Y129.16 E6.27741
G1 X97.698 Y127.664 E6.40098
G1 X95.468 Y126.231 E6.52441
G1 X93.2 Y124.865 E6.64769
G1 X90.772 Y123.495 E6.77751
G1 X90.002 Y123.074 E6.81837
G1 X89.394 Y122.697 E6.85168
G1 X88.833 Y122.254 E6.88497
G1 X88.324 Y121.751 E6.91829
G1 X87.874 Y121.195 E6.9516
G1 X87.489 Y120.592 E6.98491
G1 X87.175 Y119.95 E7.01819
G1 X86.933 Y119.277 E7.05149
G1 X86.775 Y118.637 E7.08219
G1 X86.124 Y115.945 E7.21115
G1 X85.435 Y113.407 E7.33361
G1 X84.672 Y110.894 E7.4559
G1 X83.837 Y108.389 E7.57885
G1 X82.915 Y105.867 E7.70389
G1 X81.95 Y103.44 E7.82551
G1 X80.888 Y100.978 E7.95036
G1 X79.774 Y98.583 E8.07335
G1 X78.603 Y96.238 E8.1954
G1 X77.347 Y93.895 E8.31919
G1 X76.044 Y91.618 E8.44135
G1 X75.631 Y90.941 E8.47828
G1 X75.161 Y90.15 E8.52112
G1 X75.052 Y89.959 E8.53136
G1 X74.725 Y89.363 E8.56301
G1 X74.408 Y88.697 E8.59736
G1 X74.197 Y88.165 E8.62401
G1 X74.013 Y87.594 E8.65194
G1 X73.892 Y87.148 E8.67346
G1 X73.77 Y86.604 E8.69942
G1 X73.74 Y86.437 E8.70732
G1 X73.67 Y85.933 E8.73102
G1 X73.649 Y85.72 E8.74098
G1 X73.619 Y84.978 E8.77556
G1 X73.627 Y84.529 E8.79647
G1 X73.68 Y83.816 E8.82976
G1 X73.827 Y83.006 E8.8681
G1 X74.007 Y82.313 E8.90144
G1 X74.215 Y81.754 E8.92921
G1 X74.328 Y81.489 E8.94262
G1 X74.709 Y80.737 E8.98188
G1 X74.818 Y80.553 E8.99184
G1 X75.204 Y79.975 E9.0242
G1 X75.354 Y79.775 E9.03584
G1 X75.814 Y79.228 E9.06912
G1 X76.183 Y78.865 E9.09322
M204 S3000
M205 X10 Y10
G0 F3000 X76.761 Y79.1
M204 S1800
M205 X8 Y8
G1 F2400 X76.977 Y78.916 E9.10644
G1 X77.654 Y78.419 E9.14554
G1 X78.204 Y78.093 E9.17531
G1 X78.84 Y77.777 E9.20838
G1 X79.501 Y77.519 E9.24142
G1 X80.061 Y77.342 E9.26877
G1 X80.818 Y77.163 E9.30499
G1 X81.574 Y77.039 E9.34066
G1 X82.301 Y76.967 E9.37468
G1 X83.291 Y76.912 E9.42085
G1 X85.997 Y76.725 E9.54716
G1 X88.63 Y76.468 E9.67034
G1 X91.274 Y76.134 E9.79444
G1 X93.902 Y75.726 E9.91827
G1 X96.562 Y75.237 E10.04421
G1 X99.106 Y74.694 E10.16534
G1 X99.523 Y74.594 E10.1853
G1 X100.437 Y74.389 E10.22892
G1 X100.967 Y74.287 E10.25405
G1 X101.731 Y74.2 E10.28986
G1 X102.188 Y74.178 E10.31116
G1 X103.093 Y74.204 E10.35332
G1 X103.698 Y74.287 E10.38176
G1 X104.486 Y74.463 E10.41935
G1 X104.751 Y74.542 E10.43223
G1 X105.516 Y74.83 E10.47029
G1 X105.948 Y75.028 E10.49242
G1 X106.701 Y75.442 E10.53243
G1 X107.115 Y75.719 E10.55563
G1 X107.536 Y76.039 E10.58025
G1 X108.069 Y76.496 E10.61294
G1 X108.57 Y76.991 E10.64574
G1 X108.941 Y77.409 E10.67176
G1 X109.294 Y77.844 E10.69785
G1 X109.728 Y78.442 E10.73225
G1 X110.2 Y79.187 E10.77332
G1 X110.566 Y79.841 E10.80822
G1 X110.99 Y80.695 E10.85261
G1 X111.093 Y80.914 E10.86388
G1 X111.397 Y81.596 E10.89865
G1 X111.655 Y82.219 E10.93005
G1 X111.72 Y82.385 E10.93835
G1 X111.996 Y83.122 E10.975
G1 X112.047 Y83.263 E10.98198
G1 X112.227 Y83.785 E11.00769
G1 X113.141 Y86.318 E11.13308
G1 X114.11 Y88.781 E11.25632
G1 X115.159 Y91.241 E11.38085
G1 X116.279 Y93.675 E11.50561
G1 X117.451 Y96.044 E11.62868
G1 X118.704 Y98.405 E11.75315
G1 X120.027 Y100.737 E11.87799
G1 X121.4 Y103.003 E12.00136
G1 X122.823 Y105.211 E12.12368
G1 X124.351 Y107.439 E12.24948
G1 X125.884 Y109.548 E12.37088
G1 X126.397 Y110.234 E12.41077
G1 X126.702 Y110.678 E12.43585
G1 X126.853 Y110.92 E12.44914
G1 X128.291 Y113.156 E12.57293
G1 X129.788 Y115.345 E12.69641
G1 X131.373 Y117.527 E12.82199
G1 X132.766 Y119.324 E12.92786
G1 X132.86 Y119.462 E12.93564
G1 X133.492 Y120.266 E12.98326
G1 X133.711 Y120.564 E13.00048
G1 X134.158 Y121.214 E13.03721
G1 X134.448 Y121.681 E13.06281
G1 X134.817 Y122.36 E13.09879
G1 X135.147 Y123.08 E13.13567
G1 X135.46 Y123.935 E13.17807
G1 X135.617 Y124.531 E13.20677
G1 X135.695 Y124.903 E13.22447
G1 X135.814 Y125.848 E13.26882
G1 X135.824 Y126.079 E13.27958
G1 X135.813 Y126.763 E13.31144
G1 X135.724 Y127.49 E13.34554
G1 X135.59 Y128.16 E13.37736
G1 X135.404 Y128.755 E13.40639
G1 X135.146 Y129.388 E13.43822
G1 X134.758 Y130.1 E13.47597
G1 X134.261 Y130.832 E13.51717
G1 X134.094 Y131.042 E13.52966
G1 X133.729 Y131.459 E13.55547
G1 X133.041 Y132.112 E13.59964
G1 X132.515 Y132.547 E13.63142
G1 X132.077 Y132.869 E13.65673
G1 X131.472 Y133.266 E13.69043
G1 X131.041 Y133.525 E13.71384
G1 X130.488 Y133.822 E13.74307
G1 X129.677 Y134.219 E13.78512
G1 X129.327 Y134.376 E13.80298
G1 X128.606 Y134.672 E13.83927
G1 X128.226 Y134.813 E13.85815
G1 X127.306 Y135.118 E13.90328
G1 X126.707 Y135.294 E13.93235
G1 X126.197 Y135.418 E13.95679
G1 X125.63 Y135.538 E13.98377
G1 X125.297 Y135.599 E13.99954
G1 X124.776 Y135.678 E14.02408
G1 X123.989 Y135.766 E14.06095
G1 X123.204 Y135.813 E14.09757
G1 X122.582 Y135.83 E14.12654
G1 X121.687 Y135.796 E14.16825
G1 X121.045 Y135.736 E14.19827
G1 X120.463 Y135.656 E14.22563
G1 X120.206 Y135.613 E14.23776
G1 X119.202 Y135.42 E14.28537
G1 X117.687 Y135.106 E14.35741
G1 X115.031 Y134.634 E14.48302
G1 X112.416 Y134.245 E14.60613
G1 X111.103 Y134.081 E14.66774
G1 X110.597 Y134.009 E14.69154
G1 X109.794 Y133.863 E14.72954
G1 X108.896 Y133.644 E14.77258
G1 X108.145 Y133.417 E14.80912
G1 X107.879 Y133.327 E14.82219
G1 X107.391 Y133.148 E14.8464
G1 X106.788 Y132.897 E14.87681
G1 X106.067 Y132.565 E14.91377
G1 X105.523 Y132.296 E14.94203
G1 X104.859 Y131.932 E14.97729
G1 X104.273 Y131.576 E15.00922
G1 X103.394 Y131.005 E15.05802
G1 X102.911 Y130.668 E15.08545
G1 X102.372 Y130.267 E15.11673
G1 X100.215 Y128.704 E15.24077
G1 X97.997 Y127.19 E15.36581
G1 X95.766 Y125.757 E15.48928
G1 X93.487 Y124.383 E15.6132
G1 X91.096 Y123.034 E15.74103
G1 X90.27 Y122.583 E15.78485
G1 X89.691 Y122.221 E15.81665
G1 X89.158 Y121.794 E15.84845
G1 X88.678 Y121.307 E15.88029
G1 X88.258 Y120.768 E15.91211
G1 X87.905 Y120.183 E15.94392
G1 X87.621 Y119.562 E15.97572
G1 X87.371 Y118.737 E16.01586
G1 X87.298 Y118.412 E16.03137
G1 X86.676 Y115.845 E16.15436
G1 X85.968 Y113.234 E16.28033
G1 X85.212 Y110.742 E16.40159
G1 X84.359 Y108.186 E16.52706
G1 X83.446 Y105.688 E16.6509
G1 X82.47 Y103.232 E16.77396
G1 X81.398 Y100.747 E16.89998
G1 X80.276 Y98.334 E17.02389
G1 X79.097 Y95.974 E17.14673
G1 X77.832 Y93.614 E17.27142
G1 X76.512 Y91.31 E17.39506
G1 X76.112 Y90.655 E17.4308
G1 X75.642 Y89.864 E17.47364
G1 X75.543 Y89.69 E17.48296
G1 X75.216 Y89.094 E17.51462
G1 X74.927 Y88.486 E17.54597
G1 X74.722 Y87.969 E17.57186
G1 X74.554 Y87.447 E17.5974
G1 X74.433 Y87.001 E17.61891
G1 X74.321 Y86.505 E17.64259
G1 X74.227 Y85.878 E17.67211
G1 X74.206 Y85.665 E17.68208
G1 X74.179 Y84.988 E17.71363
G1 X74.187 Y84.539 E17.73454
G1 X74.239 Y83.858 E17.76634
G1 X74.376 Y83.116 E17.80148
G1 X74.549 Y82.455 E17.83329
G1 X74.73 Y81.973 E17.85727
G1 X74.843 Y81.708 E17.87068
G1 X75.19 Y81.023 E17.90644
G1 X75.299 Y80.839 E17.9164
G1 X75.652 Y80.311 E17.94597
G1 X75.802 Y80.111 E17.95761
G1 X76.243 Y79.589 E17.98943
G1 X76.761 Y79.1 E18.0226
M204 S3000
M205 X10 Y10
G0 F3000 X76.873 Y79.753
M204 S1800
M205 X8 Y8
G1 F2400 X77.34 Y79.343 E18.05154
G1 X77.952 Y78.893 E18.08691
G1 X78.483 Y78.578 E18.11566
G1 X79.058 Y78.293 E18.14554
G1 X79.694 Y78.044 E18.17734
G1 X80.216 Y77.88 E18.20282
G1 X80.938 Y77.71 E18.23736
G1 X81.636 Y77.595 E18.2703
G1 X82.332 Y77.526 E18.30287
G1 X83.361 Y77.469 E18.35086
G1 X86.017 Y77.285 E18.47483
G1 X88.685 Y77.025 E18.59965
G1 X91.395 Y76.683 E18.72684
G1 X93.986 Y76.281 E18.84893
G1 X96.637 Y75.793 E18.97445
G1 X99.245 Y75.236 E19.09862
G1 X99.645 Y75.14 E19.11778
G1 X100.559 Y74.935 E19.1614
G1 X101.067 Y74.838 E19.18548
G1 X101.758 Y74.759 E19.21786
G1 X102.215 Y74.737 E19.23917
G1 X103.033 Y74.761 E19.27727
G1 X103.613 Y74.84 E19.30453
G1 X104.326 Y75 E19.33856
G1 X104.591 Y75.079 E19.35143
G1 X105.283 Y75.339 E19.38585
G1 X105.715 Y75.537 E19.40798
G1 X106.395 Y75.912 E19.44414
G1 X107.177 Y76.469 E19.48885
G1 X107.686 Y76.904 E19.52002
G1 X108.156 Y77.368 E19.55078
G1 X108.508 Y77.765 E19.57548
G1 X108.85 Y78.185 E19.6007
G1 X109.261 Y78.751 E19.63328
G1 X109.722 Y79.479 E19.6734
G1 X110.064 Y80.09 E19.706
G1 X110.488 Y80.944 E19.7504
G1 X110.582 Y81.142 E19.76061
G1 X110.886 Y81.824 E19.79538
G1 X111.137 Y82.432 E19.826
G1 X111.196 Y82.581 E19.83347
G1 X111.472 Y83.318 E19.87011
G1 X111.708 Y83.996 E19.90354
G1 X112.609 Y86.494 E20.02719
G1 X113.594 Y88.998 E20.15249
G1 X114.659 Y91.495 E20.27889
G1 X115.769 Y93.907 E20.40253
G1 X116.955 Y96.304 E20.52706
G1 X118.208 Y98.665 E20.65152
G1 X119.547 Y101.026 E20.7779
G1 X120.911 Y103.277 E20.90046
G1 X122.378 Y105.553 E21.02655
G1 X123.897 Y107.767 E21.15157
G1 X125.388 Y109.819 E21.26968
G1 X125.949 Y110.569 E21.31329
G1 X126.378 Y111.217 E21.34948
G1 X127.834 Y113.481 E21.47482
G1 X129.328 Y115.665 E21.59804
G1 X130.906 Y117.837 E21.72305
G1 X132.324 Y119.667 E21.83085
G1 X132.417 Y119.804 E21.83856
G1 X133.051 Y120.611 E21.88634
G1 X133.25 Y120.881 E21.90196
G1 X133.697 Y121.531 E21.9387
G1 X134.184 Y122.358 E21.98338
G1 X134.452 Y122.888 E22.01104
G1 X134.781 Y123.681 E22.05102
G1 X134.961 Y124.219 E22.07743
G1 X135.147 Y125.017 E22.11559
G1 X135.254 Y125.873 E22.15576
G1 X135.264 Y126.104 E22.16652
G1 X135.218 Y127.062 E22.21118
G1 X135.169 Y127.413 E22.22769
G1 X135.04 Y128.05 E22.25795
G1 X134.873 Y128.575 E22.2836
G1 X134.627 Y129.176 E22.31384
G1 X134.272 Y129.821 E22.34812
G1 X133.823 Y130.483 E22.38537
G1 X133.656 Y130.693 E22.39786
G1 X133.325 Y131.07 E22.42122
G1 X132.664 Y131.698 E22.46368
G1 X132.166 Y132.109 E22.49375
G1 X131.752 Y132.413 E22.51766
G1 X131.169 Y132.795 E22.55012
G1 X130.58 Y133.142 E22.58195
G1 X130.241 Y133.319 E22.59976
G1 X129.43 Y133.716 E22.6418
G1 X129.114 Y133.858 E22.65793
G1 X128.393 Y134.154 E22.69423
G1 X128.05 Y134.282 E22.71127
G1 X127.13 Y134.587 E22.75641
G1 X126.569 Y134.751 E22.78362
G1 X126.081 Y134.871 E22.80702
G1 X125.514 Y134.991 E22.83401
G1 X125.213 Y135.045 E22.84825
G1 X124.692 Y135.124 E22.87278
G1 X123.956 Y135.207 E22.90727
G1 X123.171 Y135.254 E22.94389
G1 X122.582 Y135.27 E22.97133
G1 X121.718 Y135.237 E23.01159
G1 X121.104 Y135.179 E23.04031
G1 X120.544 Y135.102 E23.06663
G1 X120.311 Y135.063 E23.07763
G1 X119.316 Y134.872 E23.12481
G1 X117.796 Y134.557 E23.19709
G1 X115.142 Y134.085 E23.32261
G1 X112.477 Y133.689 E23.44806
G1 X111.182 Y133.526 E23.50884
G1 X110.676 Y133.454 E23.53264
G1 X109.902 Y133.314 E23.56926
G1 X109.035 Y133.102 E23.61082
G1 X108.312 Y132.883 E23.646
G1 X108.072 Y132.801 E23.65781
G1 X107.584 Y132.622 E23.68201
G1 X107.023 Y132.388 E23.71032
G1 X106.302 Y132.056 E23.74728
G1 X105.773 Y131.795 E23.77475
G1 X105.136 Y131.446 E23.80857
G1 X104.578 Y131.107 E23.83897
G1 X103.699 Y130.536 E23.88778
G1 X103.245 Y130.218 E23.91359
G1 X102.711 Y129.821 E23.94457
G1 X100.518 Y128.231 E24.0707
G1 X98.322 Y126.733 E24.19448
G1 X96.055 Y125.277 E24.31994
G1 X93.773 Y123.902 E24.444
G1 X91.328 Y122.522 E24.57473
G1 X90.539 Y122.091 E24.61659
G1 X89.989 Y121.745 E24.64685
G1 X89.485 Y121.335 E24.6771
G1 X89.036 Y120.865 E24.70737
G1 X88.648 Y120.344 E24.73762
G1 X88.327 Y119.78 E24.76784
G1 X88.078 Y119.18 E24.79809
G1 X87.917 Y118.614 E24.82549
G1 X87.844 Y118.289 E24.841
G1 X87.22 Y115.71 E24.96455
G1 X86.511 Y113.101 E25.09044
G1 X85.736 Y110.546 E25.21477
G1 X84.885 Y107.994 E25.34003
G1 X83.968 Y105.486 E25.46438
G1 X82.972 Y102.982 E25.58986
G1 X81.919 Y100.54 E25.71369
G1 X80.791 Y98.111 E25.83839
G1 X79.598 Y95.723 E25.96269
G1 X78.319 Y93.338 E26.08871
G1 X76.999 Y91.032 E26.21243
G1 X76.594 Y90.369 E26.24861
