;FLAVOR:Marlin
;TIME:1752
;Filament used: 1.3754m
;Layer height: 0.2
;MINX:3.348
;MINY:54.936
;MINZ:0.2
;MAXX:200.07
;MAXY:161.66
;MAXZ:0.8
;Generated with Cura_SteamEngine 4.10.0
M140 S60
M105
M190 S60
M104 S200
M105
M109 S200
M82 ;absolute extrusion mode
G21 ;metric values
G90 ;absolute positioning
M82 ;set extruder to absolute mode
M107 ;start with the fan off
G28 X0 Y0 ;move X/Y to min endstops
G28 Z0 ;move Z to min endstops
G1 Z15.0 F100 ;move the platform down 15mm
G92 E0 ;zero the extruded length
G1 F200 E3 ;extrude 3mm of feed stock
G92 E0 ;zero the extruded length again
G1 F100
G0 Y20 F100
M117 Printing...
G5
G92 E0
G92 E0
G1 F2400 E-6
;LAYER_COUNT:4
;LAYER:0
M107
M204 S3000
M205 X10 Y10
G1 F600 Z0.275
G0 F3000 X31.892 Y69.599 Z0.275
M204 S1800
M205 X8 Y8
;TYPE:SKIRT
G1 F600 Z0.2
G1 F2400 E0
G1 X32.124 Y69.496 E0.01182
G1 X33.8 Y68.789 E0.09652
G1 X33.993 Y68.711 E0.10621
G1 X34.613 Y68.473 E0.13714
G1 X35.294 Y68.254 E0.17045
G1 X35.996 Y68.113 E0.20379
G1 X36.708 Y68.051 E0.23707
G1 X37.423 Y68.069 E0.27037
G1 X38.132 Y68.166 E0.30369
G1 X38.825 Y68.342 E0.33699
G1 X39.263 Y68.497 E0.35862
G1 X39.849 Y68.729 E0.38797
G1 X40.076 Y68.824 E0.39943
G1 X41.48 Y69.443 E0.47087
G1 X43.968 Y70.499 E0.59673
G1 X46.455 Y71.472 E0.72108
G1 X48.922 Y72.359 E0.84316
G1 X51.416 Y73.175 E0.96534
G1 X53.983 Y73.936 E1.09002
G1 X56.524 Y74.612 E1.21245
G1 X59.147 Y75.232 E1.33795
G1 X61.715 Y75.759 E1.46002
G1 X64.296 Y76.215 E1.58207
G1 X66.935 Y76.605 E1.70628
G1 X69.55 Y76.916 E1.82891
G1 X72.188 Y77.155 E1.95225
G1 X74.86 Y77.321 E2.07691
G1 X77.466 Y77.408 E2.19832
G1 X79.041 Y77.426 E2.27166
G1 X80.763 Y77.432 E2.35185
G1 X81.384 Y77.451 E2.38078
G1 X82.096 Y77.518 E2.41408
G1 X82.797 Y77.663 E2.44741
G1 X83.476 Y77.885 E2.48067
G1 X84.127 Y78.182 E2.51399
G1 X84.741 Y78.55 E2.54733
G1 X85.309 Y78.984 E2.58061
G1 X85.64 Y79.287 E2.60151
G1 X86.238 Y79.876 E2.64059
G1 X86.415 Y80.058 E2.65241
G1 X87.562 Y81.281 E2.73049
G1 X87.736 Y81.474 E2.74259
G1 X88.919 Y82.843 E2.82684
G1 X89.053 Y83.003 E2.83655
G1 X89.476 Y83.526 E2.86788
G1 X89.894 Y84.107 E2.9012
G1 X90.245 Y84.73 E2.9345
G1 X90.524 Y85.389 E2.96782
G1 X90.727 Y86.074 E3.00109
G1 X90.853 Y86.779 E3.03444
G1 X90.9 Y87.492 E3.06771
G1 X90.887 Y87.951 E3.08909
G1 X90.848 Y88.574 E3.11816
G1 X90.829 Y88.817 E3.12951
G1 X90.665 Y90.441 E3.20551
G1 X90.434 Y93.095 E3.32956
G1 X90.28 Y95.722 E3.4521
G1 X90.201 Y98.364 E3.57517
G1 X90.195 Y101.008 E3.69829
G1 X90.266 Y103.685 E3.82299
G1 X90.41 Y106.296 E3.94475
G1 X90.631 Y108.959 E4.06918
G1 X90.92 Y111.552 E4.19067
G1 X91.292 Y114.2 E4.31518
G1 X91.734 Y116.808 E4.43835
G1 X92.247 Y119.395 E4.56116
G1 X92.832 Y121.956 E4.68348
G1 X93.509 Y124.58 E4.80966
G1 X94.227 Y127.068 E4.93024
G1 X94.675 Y128.506 E5.00038
G1 X95.22 Y130.204 E5.08342
G1 X95.386 Y130.772 E5.11097
G1 X95.544 Y131.469 E5.14425
G1 X95.623 Y132.18 E5.17756
G1 X95.623 Y132.895 E5.21085
G1 X95.542 Y133.606 E5.24417
G1 X95.383 Y134.303 E5.27746
G1 X95.147 Y134.979 E5.3108
G1 X94.956 Y135.397 E5.3322
G1 X94.58 Y136.148 E5.37131
G1 X94.465 Y136.367 E5.38283
G1 X93.662 Y137.827 E5.46042
G1 X93.53 Y138.056 E5.47273
G1 X92.594 Y139.603 E5.55692
G1 X92.484 Y139.777 E5.5665
G1 X92.111 Y140.351 E5.59838
G1 X91.689 Y140.928 E5.63167
G1 X91.204 Y141.455 E5.66502
G1 X90.664 Y141.924 E5.69832
G1 X90.075 Y142.329 E5.7316
G1 X89.445 Y142.667 E5.7649
G1 X88.78 Y142.932 E5.79823
G1 X88.336 Y143.063 E5.81978
G1 X87.779 Y143.206 E5.84656
G1 X87.54 Y143.263 E5.858
G1 X85.982 Y143.6 E5.93223
G1 X83.366 Y144.204 E6.05724
G1 X80.803 Y144.873 E6.18059
G1 X78.242 Y145.619 E6.30479
G1 X75.756 Y146.421 E6.42643
G1 X73.223 Y147.317 E6.55154
G1 X70.782 Y148.259 E6.67337
G1 X68.355 Y149.276 E6.7959
G1 X65.909 Y150.383 E6.92092
G1 X63.536 Y151.539 E7.04383
G1 X61.195 Y152.762 E7.16682
G1 X58.893 Y154.049 E7.28962
G1 X56.604 Y155.416 E7.41377
G1 X54.387 Y156.825 E7.53608
G1 X52.18 Y158.317 E7.66013
G1 X50.924 Y159.208 E7.73184
G1 X49.507 Y160.229 E7.81316
G1 X49.001 Y160.573 E7.84165
G1 X48.386 Y160.939 E7.87498
G1 X47.734 Y161.233 E7.90828
G1 X47.054 Y161.453 E7.94156
G1 X46.353 Y161.596 E7.97487
G1 X45.64 Y161.66 E8.00821
G1 X44.925 Y161.643 E8.04151
G1 X44.476 Y161.592 E8.06255
G1 X43.639 Y161.466 E8.10197
G1 X43.393 Y161.424 E8.11359
G1 X41.768 Y161.114 E8.19062
G1 X41.505 Y161.058 E8.20314
G1 X39.706 Y160.636 E8.28918
G1 X39.5 Y160.584 E8.29908
G1 X38.874 Y160.415 E8.32927
G1 X38.195 Y160.19 E8.36258
G1 X37.545 Y159.891 E8.39589
G1 X36.933 Y159.521 E8.42919
G1 X36.366 Y159.086 E8.46247
G1 X35.851 Y158.589 E8.49579
G1 X35.394 Y158.039 E8.52909
G1 X35.139 Y157.667 E8.55009
G1 X34.805 Y157.141 E8.57911
G1 X34.677 Y156.929 E8.59064
G1 X33.908 Y155.607 E8.66185
G1 X32.496 Y153.26 E8.78939
G1 X31.076 Y151.042 E8.91202
G1 X29.577 Y148.842 E9.03598
G1 X28.011 Y146.679 E9.16033
G1 X26.422 Y144.609 E9.28184
G1 X24.736 Y142.536 E9.40626
G1 X23.043 Y140.569 E9.52711
G1 X21.232 Y138.585 E9.65219
G1 X19.393 Y136.68 E9.77549
G1 X17.487 Y134.814 E9.89969
G1 X15.574 Y133.044 E10.02105
G1 X13.555 Y131.28 E10.14589
G1 X11.526 Y129.606 E10.26837
G1 X9.397 Y127.949 E10.39399
G1 X8.252 Y127.097 E10.46045
G1 X6.839 Y126.063 E10.54198
G1 X6.319 Y125.659 E10.57264
G1 X5.783 Y125.186 E10.60593
G1 X5.302 Y124.657 E10.63922
G1 X4.884 Y124.076 E10.67255
G1 X4.533 Y123.453 E10.70585
G1 X4.254 Y122.795 E10.73913
G1 X4.05 Y122.109 E10.77245
G1 X3.963 Y121.681 E10.79279
G1 X3.818 Y120.811 E10.83386
G1 X3.781 Y120.557 E10.84581
G1 X3.579 Y118.949 E10.92128
G1 X3.552 Y118.691 E10.93335
G1 X3.396 Y116.848 E11.01948
G1 X3.382 Y116.644 E11.029
G1 X3.348 Y115.998 E11.05912
G1 X3.35 Y115.283 E11.09242
G1 X3.432 Y114.573 E11.1257
G1 X3.593 Y113.876 E11.15901
G1 X3.831 Y113.201 E11.19233
G1 X4.143 Y112.557 E11.22565
G1 X4.524 Y111.952 E11.25895
G1 X4.811 Y111.579 E11.28086
G1 X5.188 Y111.124 E11.30838
G1 X5.346 Y110.94 E11.31967
G1 X6.393 Y109.769 E11.39281
G1 X8.174 Y107.719 E11.51926
G1 X9.839 Y105.691 E11.64144
G1 X11.459 Y103.6 E11.76461
G1 X13.04 Y101.434 E11.88948
G1 X14.522 Y99.278 E12.0113
G1 X15.97 Y97.039 E12.13546
G1 X17.321 Y94.813 E12.25671
G1 X18.648 Y92.481 E12.38165
G1 X19.895 Y90.139 E12.5052
G1 X21.062 Y87.789 E12.62737
G1 X22.183 Y85.361 E12.7519
G1 X23.219 Y82.941 E12.87448
G1 X24.211 Y80.432 E13.0001
G1 X25.097 Y77.981 E13.12146
G1 X25.588 Y76.526 E13.19297
G1 X26.132 Y74.873 E13.274
G1 X26.34 Y74.293 E13.30269
G1 X26.623 Y73.636 E13.336
G1 X26.977 Y73.014 E13.36932
G1 X27.398 Y72.436 E13.40262
G1 X27.882 Y71.909 E13.43594
G1 X28.421 Y71.439 E13.46924
G1 X29.009 Y71.032 E13.50254
G1 X29.407 Y70.807 E13.52383
G1 X30.152 Y70.421 E13.5629
G1 X30.377 Y70.31 E13.57458
G1 X31.892 Y69.599 E13.65251
M204 S3000
M205 X10 Y10
G0 F3000 X32.13 Y70.106
M204 S1800
M205 X8 Y8
G1 F2400 X32.341 Y70.012 E13.66326
G1 X34.017 Y69.305 E13.74796
G1 X34.194 Y69.234 E13.75684
G1 X34.814 Y68.996 E13.78777
G1 X35.465 Y68.789 E13.81958
G1 X36.136 Y68.659 E13.8514
G1 X36.817 Y68.609 E13.8832
G1 X37.5 Y68.638 E13.91503
G1 X38.174 Y68.747 E13.94682
G1 X39.057 Y69.018 E13.98983
G1 X39.643 Y69.25 E14.01918
G1 X39.85 Y69.337 E14.02963
G1 X41.256 Y69.957 E14.10119
G1 X43.753 Y71.017 E14.2275
G1 X46.239 Y71.99 E14.35181
G1 X48.736 Y72.887 E14.47535
G1 X51.27 Y73.716 E14.5995
G1 X53.814 Y74.471 E14.72307
G1 X56.388 Y75.155 E14.84708
G1 X59.016 Y75.776 E14.97282
G1 X61.608 Y76.308 E15.09603
G1 X64.226 Y76.771 E15.21983
G1 X66.856 Y77.16 E15.34363
G1 X69.503 Y77.475 E15.46775
G1 X72.14 Y77.713 E15.59104
G1 X74.806 Y77.879 E15.71542
G1 X77.486 Y77.969 E15.84028
G1 X79.034 Y77.986 E15.91237
G1 X80.761 Y77.992 E15.99279
G1 X81.364 Y78.011 E16.02088
G1 X82.044 Y78.076 E16.05269
G1 X82.712 Y78.22 E16.08451
G1 X83.358 Y78.441 E16.1163
G1 X83.974 Y78.736 E16.1481
G1 X84.552 Y79.101 E16.17993
G1 X85.247 Y79.686 E16.22223
G1 X85.845 Y80.275 E16.26132
G1 X86.007 Y80.441 E16.27212
G1 X87.154 Y81.664 E16.35019
G1 X87.313 Y81.841 E16.36127
G1 X88.496 Y83.21 E16.44552
G1 X88.618 Y83.355 E16.45434
G1 X89.041 Y83.878 E16.48567
G1 X89.439 Y84.434 E16.5175
G1 X89.769 Y85.032 E16.54931
G1 X90.027 Y85.665 E16.58114
G1 X90.209 Y86.323 E16.61293
G1 X90.314 Y86.998 E16.64474
G1 X90.329 Y87.916 E16.68749
G1 X90.29 Y88.539 E16.71655
G1 X90.271 Y88.761 E16.72693
G1 X90.115 Y90.306 E16.79924
G1 X89.876 Y93.046 E16.92731
G1 X89.72 Y95.708 E17.05147
G1 X89.641 Y98.347 E17.17441
G1 X89.635 Y101.022 E17.29897
G1 X89.706 Y103.695 E17.42348
G1 X89.851 Y106.336 E17.54664
G1 X90.072 Y108.997 E17.67098
G1 X90.369 Y111.658 E17.79565
G1 X90.735 Y114.268 E17.91837
G1 X91.182 Y116.901 E18.04273
G1 X91.702 Y119.526 E18.16734
G1 X92.292 Y122.111 E18.2908
G1 X92.96 Y124.697 E18.41517
G1 X93.7 Y127.262 E18.53948
G1 X94.128 Y128.632 E18.60631
G1 X94.687 Y130.375 E18.69154
G1 X94.848 Y130.926 E18.71827
G1 X94.997 Y131.592 E18.75005
G1 X95.067 Y132.272 E18.78188
G1 X95.058 Y132.955 E18.81369
G1 X94.968 Y133.633 E18.84554
G1 X94.801 Y134.295 E18.87733
G1 X94.455 Y135.147 E18.92015
G1 X94.079 Y135.898 E18.95926
G1 X93.974 Y136.097 E18.96973
G1 X93.171 Y137.557 E19.04732
G1 X93.051 Y137.766 E19.05854
G1 X92.115 Y139.313 E19.14274
G1 X92.015 Y139.472 E19.15148
G1 X91.642 Y140.046 E19.18336
G1 X91.237 Y140.596 E19.21516
G1 X90.77 Y141.095 E19.24699
G1 X90.248 Y141.536 E19.27881
G1 X89.679 Y141.914 E19.31061
G1 X89.069 Y142.222 E19.34243
G1 X88.197 Y142.521 E19.38536
G1 X87.64 Y142.664 E19.41214
G1 X87.422 Y142.715 E19.42256
G1 X85.874 Y143.05 E19.49631
G1 X83.234 Y143.66 E19.62248
G1 X80.659 Y144.332 E19.7464
G1 X78.081 Y145.083 E19.87143
G1 X75.574 Y145.891 E19.99408
G1 X73.054 Y146.782 E20.11854
G1 X70.572 Y147.741 E20.24244
G1 X68.086 Y148.782 E20.36794
G1 X65.684 Y149.869 E20.4907
G1 X63.31 Y151.025 E20.61366
G1 X60.914 Y152.277 E20.73954
G1 X58.61 Y153.565 E20.86245
G1 X56.319 Y154.933 E20.9867
G1 X54.066 Y156.365 E21.111
G1 X51.863 Y157.855 E21.23484
G1 X50.6 Y158.751 E21.30695
G1 X49.179 Y159.775 E21.38851
G1 X48.688 Y160.109 E21.41616
G1 X48.1 Y160.456 E21.44795
G1 X47.475 Y160.733 E21.47979
G1 X46.823 Y160.934 E21.51156
G1 X46.151 Y161.058 E21.54337
G1 X45.469 Y161.103 E21.5752
G1 X44.56 Y161.038 E21.61764
G1 X43.723 Y160.912 E21.65705
G1 X43.498 Y160.874 E21.66767
G1 X41.873 Y160.564 E21.74471
G1 X41.633 Y160.513 E21.75613
G1 X39.834 Y160.091 E21.84217
G1 X39.646 Y160.043 E21.85121
G1 X39.02 Y159.874 E21.8814
G1 X38.372 Y159.658 E21.91321
G1 X37.753 Y159.367 E21.94506
G1 X37.173 Y159.006 E21.97687
G1 X36.639 Y158.58 E22.00868
G1 X36.158 Y158.095 E22.04048
G1 X35.612 Y157.366 E22.08289
G1 X35.278 Y156.84 E22.11191
G1 X35.161 Y156.648 E22.12238
G1 X34.345 Y155.246 E22.19791
G1 X32.987 Y152.988 E22.3206
G1 X31.523 Y150.703 E22.44697
G1 X30.045 Y148.534 E22.56918
G1 X28.465 Y146.351 E22.69467
G1 X26.87 Y144.273 E22.81664
G1 X25.164 Y142.176 E22.94252
G1 X23.436 Y140.168 E23.06588
G1 X21.653 Y138.214 E23.18905
G1 X19.792 Y136.287 E23.31379
G1 X17.863 Y134.399 E23.43948
G1 X15.945 Y132.623 E23.56119
G1 X13.922 Y130.856 E23.68627
G1 X11.885 Y129.176 E23.80922
G1 X9.754 Y127.516 E23.935
G1 X8.582 Y126.645 E24.00299
G1 X7.169 Y125.611 E24.08452
G1 X6.666 Y125.219 E24.11422
G1 X6.154 Y124.766 E24.14605
G1 X5.699 Y124.256 E24.17787
G1 X5.307 Y123.697 E24.20967
G1 X4.983 Y123.096 E24.24146
G1 X4.731 Y122.461 E24.27327
G1 X4.515 Y121.589 E24.3151
G1 X4.37 Y120.719 E24.35617
G1 X4.337 Y120.487 E24.36708
G1 X4.135 Y118.879 E24.44255
G1 X4.11 Y118.644 E24.45355
G1 X3.954 Y116.801 E24.53967
G1 X3.941 Y116.615 E24.54836
G1 X3.907 Y115.969 E24.57848
G1 X3.911 Y115.286 E24.61028
G1 X3.995 Y114.608 E24.64209
G1 X4.157 Y113.944 E24.67392
G1 X4.396 Y113.304 E24.70573
G1 X4.708 Y112.696 E24.73755
G1 X5.242 Y111.936 E24.7808
G1 X5.619 Y111.481 E24.80832
G1 X5.763 Y111.314 E24.81859
G1 X6.847 Y110.102 E24.8943
G1 X8.585 Y108.101 E25.01771
G1 X10.266 Y106.052 E25.14112
G1 X11.927 Y103.909 E25.26738
G1 X13.477 Y101.786 E25.38978
G1 X15.004 Y99.564 E25.51532
G1 X16.422 Y97.371 E25.63692
G1 X17.825 Y95.06 E25.76281
G1 X19.144 Y92.744 E25.88691
G1 X20.399 Y90.385 E26.01134
G1 X21.572 Y88.023 E26.13414
G1 X22.692 Y85.596 E26.2586
G1 X23.735 Y83.16 E26.38199
G1 X24.727 Y80.651 E26.50762
G1 X25.622 Y78.174 E26.63026
G1 X26.119 Y76.705 E26.70247
G1 X26.664 Y75.048 E26.78369
G1 X26.866 Y74.485 E26.81155
G1 X27.138 Y73.858 E26.84337
G1 X27.481 Y73.267 E26.87519
G1 X27.89 Y72.721 E26.90695
G1 X28.361 Y72.225 E26.9388
G1 X28.887 Y71.789 E26.97062
G1 X29.664 Y71.305 E27.01324
G1 X30.409 Y70.919 E27.05231
G1 X30.615 Y70.817 E27.06302
G1 X32.13 Y70.106 E27.14094
M204 S3000
M205 X10 Y10
G0 F3000 X32.368 Y70.613
M204 S1800
M205 X8 Y8
G1 F2400 X32.559 Y70.528 E27.15068
G1 X34.235 Y69.821 E27.23538
G1 X34.395 Y69.757 E27.2434
G1 X35.015 Y69.519 E27.27433
G1 X35.634 Y69.324 E27.30455
G1 X36.273 Y69.206 E27.3348
G1 X36.922 Y69.168 E27.36508
G1 X37.57 Y69.21 E27.39531
G1 X38.208 Y69.331 E27.42555
G1 X38.851 Y69.539 E27.45702
G1 X39.437 Y69.771 E27.48637
G1 X39.624 Y69.849 E27.4958
G1 X41.066 Y70.485 E27.56919
G1 X43.52 Y71.527 E27.69333
G1 X46.054 Y72.518 E27.82003
G1 X48.55 Y73.415 E27.94353
G1 X51.114 Y74.254 E28.06915
G1 X53.656 Y75.008 E28.19261
G1 X56.259 Y75.7 E28.31803
G1 X58.91 Y76.326 E28.44486
G1 X61.473 Y76.853 E28.56671
G1 X64.15 Y77.325 E28.69328
G1 X66.782 Y77.715 E28.81718
G1 X69.455 Y78.033 E28.94252
G1 X72.087 Y78.271 E29.06558
G1 X74.79 Y78.439 E29.19168
G1 X77.46 Y78.528 E29.31608
G1 X79.028 Y78.546 E29.3891
G1 X80.759 Y78.552 E29.4697
G1 X81.343 Y78.571 E29.49691
G1 X81.989 Y78.634 E29.52713
G1 X82.623 Y78.777 E29.55739
G1 X83.235 Y78.996 E29.58766
G1 X83.815 Y79.289 E29.61792
G1 X84.354 Y79.651 E29.64815
G1 X84.854 Y80.085 E29.67898
G1 X85.452 Y80.674 E29.71806
G1 X85.598 Y80.824 E29.72781
G1 X86.745 Y82.047 E29.80589
G1 X86.889 Y82.207 E29.81591
G1 X88.072 Y83.576 E29.90016
G1 X88.182 Y83.708 E29.90816
G1 X88.605 Y84.231 E29.93948
G1 X88.982 Y84.76 E29.96973
G1 X89.291 Y85.331 E29.99996
G1 X89.527 Y85.937 E30.03024
G1 X89.687 Y86.566 E30.06046
G1 X89.769 Y87.211 E30.09074
G1 X89.77 Y87.881 E30.12194
G1 X89.731 Y88.504 E30.151
G1 X89.714 Y88.705 E30.1604
G1 X89.557 Y90.257 E30.23303
G1 X89.318 Y93 E30.36124
G1 X89.162 Y95.658 E30.48522
G1 X89.081 Y98.365 E30.61133
G1 X89.075 Y101.036 E30.7357
G1 X89.146 Y103.706 E30.86007
G1 X89.293 Y106.376 E30.98459
G1 X89.516 Y109.071 E31.11051
G1 X89.808 Y111.687 E31.23308
G1 X90.184 Y114.364 E31.35895
G1 X90.637 Y117.035 E31.4851
G1 X91.143 Y119.59 E31.60638
G1 X91.754 Y122.265 E31.73415
G1 X92.421 Y124.848 E31.85837
G1 X93.159 Y127.407 E31.98238
G1 X93.595 Y128.803 E32.05048
G1 X94.154 Y130.546 E32.13572
G1 X94.309 Y131.08 E32.16161
G1 X94.449 Y131.714 E32.19184
G1 X94.51 Y132.361 E32.2221
G1 X94.491 Y133.01 E32.25234
G1 X94.393 Y133.652 E32.28258
G1 X94.216 Y134.277 E32.31282
G1 X93.954 Y134.896 E32.34412
G1 X93.578 Y135.647 E32.38323
G1 X93.483 Y135.828 E32.39275
G1 X92.68 Y137.288 E32.47034
G1 X92.571 Y137.476 E32.48046
G1 X91.635 Y139.023 E32.56465
G1 X91.545 Y139.167 E32.57256
G1 X91.172 Y139.741 E32.60443
G1 X90.786 Y140.263 E32.63466
G1 X90.338 Y140.733 E32.6649
G1 X89.835 Y141.145 E32.69517
G1 X89.286 Y141.492 E32.72541
G1 X88.699 Y141.769 E32.75564
G1 X88.058 Y141.978 E32.78703
G1 X87.501 Y142.121 E32.81381
G1 X87.304 Y142.168 E32.82324
G1 X85.708 Y142.513 E32.89927
G1 X83.111 Y143.113 E33.02339
G1 X80.496 Y143.795 E33.14922
G1 X77.929 Y144.543 E33.27373
G1 X75.404 Y145.357 E33.39726
G1 X72.862 Y146.256 E33.52281
G1 X70.344 Y147.229 E33.64851
G1 X67.879 Y148.261 E33.77294
G1 X65.458 Y149.357 E33.89669
G1 X63.041 Y150.534 E34.02187
G1 X60.674 Y151.771 E34.14623
G1 X58.302 Y153.097 E34.27276
G1 X56.025 Y154.456 E34.39624
G1 X53.755 Y155.899 E34.52149
G1 X51.547 Y157.393 E34.64563
G1 X50.309 Y158.271 E34.7163
G1 X48.852 Y159.321 E34.79993
G1 X48.376 Y159.644 E34.82671
G1 X47.816 Y159.973 E34.85695
G1 X47.219 Y160.23 E34.88722
G1 X46.596 Y160.413 E34.91745
G1 X45.954 Y160.517 E34.94774
G1 X45.305 Y160.542 E34.97798
G1 X44.643 Y160.484 E35.00892
G1 X43.806 Y160.358 E35.04834
G1 X43.603 Y160.323 E35.05793
G1 X41.978 Y160.013 E35.13496
G1 X41.761 Y159.967 E35.14529
G1 X39.962 Y159.545 E35.23133
G1 X39.792 Y159.503 E35.23949
