;FLAVOR:Marlin
;TIME:8183
;Filament used: 6.61813m
;Layer height: 0.2
;MINX:1.912
;MINY:51.535
;MINZ:0.2
;MAXX:208.106
;MAXY:158.472
;MAXZ:15
;Generated with Cura_SteamEngine 4.10.0
M140 S60
M105
M190 S60
M104 S200
M105
M109 S200
M82 ;absolute extrusion mode
G21 ;metric values
G90 ;absolute positioning
M82 ;set extruder to absolute mode
M107 ;start with the fan off
G28 X0 Y0 ;move X/Y to min endstops
G28 Z0 ;move Z to min endstops
G1 Z15.0 F100 ;move the platform down 15mm
G92 E0 ;zero the extruded length
G1 F200 E3 ;extrude 3mm of feed stock
G92 E0 ;zero the extruded length again
G1 F100
G0 Y20 F100
M117 Printing...
G5
G92 E0
G92 E0
G1 F2400 E-6
;LAYER_COUNT:75
;LAYER:0
M107
M204 S3000
M205 X10 Y10
G1 F600 Z0.275
G0 F3000 X30.447 Y66.414 Z0.275
M204 S1800
M205 X8 Y8
;TYPE:SKIRT
G1 F600 Z0.2
G1 F2400 E0
G1 X30.677 Y66.311 E0.01173
G1 X32.345 Y65.608 E0.09602
G1 X32.533 Y65.533 E0.10545
G1 X33.188 Y65.281 E0.13812
G1 X33.869 Y65.062 E0.17143
G1 X34.57 Y64.92 E0.20474
G1 X35.282 Y64.857 E0.23802
G1 X35.997 Y64.874 E0.27132
G1 X36.706 Y64.971 E0.30465
G1 X37.648 Y65.23 E0.35014
G1 X37.962 Y65.344 E0.36569
G1 X39.387 Y65.884 E0.43665
G1 X41.875 Y66.746 E0.55926
G1 X44.419 Y67.548 E0.68346
G1 X46.981 Y68.277 E0.8075
G1 X49.492 Y68.916 E0.92815
G1 X52.145 Y69.51 E1.05474
G1 X54.715 Y70.01 E1.17665
G1 X57.316 Y70.441 E1.29942
G1 X59.949 Y70.801 E1.42316
G1 X62.562 Y71.082 E1.54554
G1 X65.209 Y71.292 E1.66918
G1 X67.876 Y71.427 E1.79353
G1 X70.487 Y71.487 E1.91514
G1 X73.164 Y71.471 E2.03979
G1 X75.771 Y71.383 E2.16125
G1 X78.45 Y71.216 E2.28624
G1 X81.063 Y70.979 E2.40841
G1 X83.723 Y70.661 E2.53315
G1 X86.302 Y70.28 E2.65455
G1 X88.936 Y69.812 E2.77912
G1 X91.542 Y69.274 E2.90302
G1 X94.06 Y68.681 E3.02348
G1 X96.673 Y67.984 E3.14941
G1 X99.193 Y67.236 E3.27181
G1 X101.709 Y66.411 E3.3951
G1 X104.184 Y65.522 E3.51756
G1 X106.677 Y64.545 E3.64224
G1 X109.091 Y63.519 E3.76437
G1 X111.509 Y62.411 E3.88822
G1 X113.876 Y61.244 E4.01111
G1 X116.234 Y59.996 E4.13534
G1 X118.512 Y58.707 E4.25722
G1 X120.804 Y57.324 E4.38186
G1 X122.518 Y56.224 E4.4767
G1 X124.552 Y54.902 E4.58966
G1 X124.735 Y54.787 E4.59972
G1 X126.481 Y53.736 E4.69461
G1 X126.99 Y53.441 E4.72201
G1 X127.862 Y52.954 E4.76852
G1 X128.01 Y52.874 E4.77635
G1 X128.625 Y52.553 E4.80865
G1 X129.283 Y52.223 E4.84293
G1 X129.939 Y51.939 E4.87621
G1 X130.623 Y51.729 E4.90953
G1 X131.326 Y51.598 E4.94283
G1 X131.917 Y51.548 E4.97045
G1 X132.026 Y51.544 E4.97553
G1 X132.741 Y51.558 E5.00883
G1 X133.614 Y51.685 E5.04991
G1 X133.822 Y51.73 E5.05981
G1 X136.51 Y52.272 E5.1875
G1 X139.134 Y52.725 E5.31149
G1 X141.734 Y53.097 E5.43379
G1 X144.337 Y53.395 E5.55579
G1 X147.034 Y53.627 E5.68184
G1 X149.643 Y53.778 E5.80352
G1 X152.284 Y53.855 E5.92655
G1 X154.927 Y53.857 E6.04962
G1 X157.605 Y53.784 E6.17437
G1 X160.243 Y53.637 E6.29739
G1 X162.839 Y53.419 E6.4187
G1 X165.507 Y53.118 E6.54372
G1 X168.123 Y52.748 E6.66675
G1 X170.733 Y52.304 E6.79002
G1 X173.338 Y51.784 E6.91372
G1 X173.846 Y51.675 E6.93791
G1 X174.553 Y51.565 E6.97123
G1 X175.268 Y51.535 E7.00455
G1 X175.981 Y51.584 E7.03783
G1 X176.759 Y51.731 E7.0747
G1 X176.952 Y51.78 E7.08397
G1 X177.634 Y51.994 E7.11725
G1 X178.284 Y52.281 E7.15034
G1 X178.801 Y52.545 E7.17737
G1 X179.094 Y52.699 E7.19278
G1 X180.053 Y53.22 E7.2436
G1 X180.211 Y53.309 E7.25205
G1 X181.256 Y53.917 E7.30834
G1 X182.852 Y54.886 E7.39528
G1 X183.027 Y54.996 E7.40491
G1 X183.559 Y55.343 E7.43448
G1 X184.136 Y55.767 E7.46783
G1 X184.661 Y56.252 E7.50111
G1 X185.271 Y56.984 E7.54547
G1 X185.321 Y57.054 E7.54948
G1 X185.703 Y57.658 E7.58276
G1 X186.016 Y58.302 E7.6161
G1 X186.21 Y58.827 E7.64216
G1 X186.268 Y59.008 E7.65101
G1 X187.108 Y61.514 E7.77408
G1 X188.032 Y64.031 E7.89893
G1 X189.008 Y66.473 E8.02139
G1 X190.055 Y68.893 E8.14417
G1 X191.172 Y71.288 E8.26722
G1 X192.363 Y73.663 E8.39094
G1 X193.619 Y75.999 E8.51444
G1 X194.936 Y78.292 E8.63757
G1 X196.313 Y80.539 E8.76028
G1 X197.772 Y82.777 E8.88468
G1 X199.28 Y84.95 E9.00784
G1 X200.842 Y87.071 E9.1305
G1 X202.471 Y89.158 E9.25378
G1 X204.167 Y91.208 E9.37767
G1 X205.702 Y92.968 E9.48641
G1 X206.364 Y93.709 E9.53268
G1 X206.972 Y94.507 E9.57939
G1 X207.01 Y94.566 E9.58266
G1 X207.363 Y95.188 E9.61596
G1 X207.644 Y95.845 E9.64923
G1 X207.85 Y96.53 E9.68254
G1 X207.979 Y97.234 E9.71587
G1 X208.022 Y97.731 E9.7391
G1 X208.056 Y98.471 E9.77359
G1 X208.078 Y99.135 E9.80453
G1 X208.106 Y100.873 E9.88547
G1 X208.105 Y101.555 E9.91722
G1 X208.089 Y102.626 E9.9671
G1 X208.069 Y103.129 E9.99054
G1 X208.023 Y103.932 E10.02799
G1 X207.942 Y104.643 E10.06131
G1 X207.782 Y105.34 E10.09461
G1 X207.523 Y106.066 E10.1305
G1 X207.483 Y106.16 E10.13526
G1 X207.167 Y106.801 E10.16854
G1 X206.781 Y107.404 E10.20188
G1 X206.378 Y107.905 E10.23182
G1 X205.525 Y108.865 E10.29162
G1 X203.753 Y110.916 E10.41783
G1 X202.09 Y112.953 E10.54027
G1 X200.459 Y115.073 E10.66482
G1 X198.906 Y117.213 E10.78794
G1 X197.414 Y119.395 E10.91103
G1 X195.979 Y121.627 E11.03459
G1 X194.62 Y123.879 E11.15706
G1 X193.322 Y126.175 E11.27988
G1 X192.065 Y128.552 E11.40508
G1 X190.904 Y130.907 E11.52734
G1 X189.813 Y133.287 E11.64925
G1 X188.756 Y135.776 E11.77517
G1 X187.805 Y138.202 E11.89651
G1 X186.904 Y140.711 E12.02064
G1 X186.353 Y142.365 E12.10182
G1 X186.207 Y142.815 E12.12385
G1 X185.95 Y143.483 E12.15717
G1 X185.619 Y144.117 E12.19048
G1 X185.17 Y144.775 E12.22757
G1 X185.1 Y144.865 E12.23288
G1 X184.63 Y145.404 E12.26618
G1 X184.103 Y145.888 E12.2995
G1 X183.526 Y146.308 E12.33273
G1 X182.932 Y146.692 E12.36566
G1 X182.672 Y146.855 E12.37995
G1 X181.064 Y147.828 E12.46747
G1 X180.587 Y148.104 E12.49313
G1 X179.666 Y148.624 E12.54238
G1 X179.492 Y148.719 E12.55161
G1 X178.846 Y149.057 E12.58556
G1 X178.196 Y149.387 E12.6195
G1 X177.541 Y149.674 E12.6528
G1 X176.858 Y149.887 E12.68612
G1 X176.156 Y150.022 E12.7194
G1 X175.57 Y150.076 E12.74681
G1 X174.854 Y150.082 E12.78015
G1 X173.876 Y149.959 E12.82605
G1 X171.201 Y149.412 E12.95318
G1 X168.57 Y148.951 E13.07756
G1 X165.966 Y148.569 E13.20011
G1 X163.359 Y148.263 E13.32234
G1 X160.681 Y148.024 E13.44753
G1 X158.079 Y147.867 E13.56891
G1 X155.403 Y147.781 E13.69358
G1 X152.759 Y147.77 E13.8167
G1 X150.118 Y147.835 E13.93971
G1 X147.48 Y147.974 E14.06272
G1 X144.838 Y148.189 E14.18615
G1 X142.221 Y148.475 E14.30873
G1 X139.561 Y148.844 E14.43378
G1 X136.979 Y149.276 E14.55568
G1 X133.91 Y149.886 E14.70138
G1 X133.611 Y149.951 E14.71563
G1 X132.905 Y150.063 E14.74891
G1 X132.19 Y150.096 E14.78224
G1 X131.59 Y150.061 E14.81023
G1 X131.466 Y150.048 E14.81603
G1 X130.76 Y149.934 E14.84933
G1 X129.866 Y149.668 E14.89276
G1 X129.646 Y149.584 E14.90373
G1 X127.117 Y148.671 E15.02893
G1 X124.626 Y147.849 E15.15107
G1 X122.05 Y147.081 E15.27624
G1 X119.502 Y146.398 E15.39907
G1 X116.947 Y145.791 E15.52136
G1 X114.317 Y145.241 E15.64647
G1 X111.724 Y144.78 E15.7691
G1 X109.155 Y144.396 E15.89006
G1 X106.477 Y144.071 E16.01567
G1 X103.858 Y143.829 E16.13814
G1 X101.209 Y143.66 E16.26174
G1 X98.575 Y143.566 E16.38447
G1 X95.93 Y143.547 E16.50763
G1 X93.249 Y143.604 E16.6325
G1 X90.654 Y143.731 E16.75348
G1 X87.974 Y143.94 E16.87865
G1 X85.374 Y144.217 E17.0004
G1 X82.724 Y144.574 E17.12491
G1 X80.133 Y144.998 E17.24717
G1 X77.494 Y145.509 E17.37233
G1 X74.954 Y146.074 E17.49349
G1 X72.392 Y146.719 E17.61651
G1 X69.824 Y147.446 E17.74079
G1 X67.274 Y148.245 E17.86522
G1 X64.817 Y149.094 E17.98627
G1 X62.308 Y150.04 E18.11113
G1 X59.866 Y151.039 E18.23398
G1 X57.467 Y152.103 E18.35618
G1 X55.049 Y153.256 E18.48092
G1 X52.7 Y154.461 E18.60385
G1 X50.403 Y155.72 E18.72582
G1 X48.064 Y157.093 E18.85212
G1 X47.585 Y157.386 E18.87826
G1 X47.244 Y157.587 E18.89669
G1 X46.608 Y157.916 E18.93004
G1 X45.94 Y158.171 E18.96333
G1 X45.248 Y158.35 E18.99661
G1 X44.54 Y158.451 E19.02991
G1 X43.825 Y158.472 E19.06322
G1 X43.038 Y158.402 E19.10001
G1 X42.211 Y158.277 E19.13896
G1 X41.966 Y158.235 E19.15053
G1 X40.323 Y157.921 E19.22842
G1 X40.066 Y157.867 E19.24065
G1 X38.288 Y157.451 E19.32568
G1 X38.083 Y157.399 E19.33553
G1 X37.444 Y157.227 E19.36634
G1 X36.764 Y157.003 E19.39968
G1 X36.114 Y156.704 E19.43299
G1 X35.502 Y156.335 E19.46627
G1 X34.934 Y155.9 E19.49958
G1 X34.419 Y155.404 E19.53288
G1 X33.962 Y154.853 E19.56621
G1 X33.711 Y154.488 E19.58684
G1 X33.382 Y153.972 E19.61533
G1 X33.246 Y153.749 E19.62749
G1 X32.442 Y152.367 E19.70194
G1 X31.092 Y150.123 E19.82389
G1 X29.644 Y147.86 E19.94899
G1 X28.15 Y145.663 E20.0727
G1 X26.628 Y143.56 E20.19358
G1 X24.977 Y141.408 E20.31988
G1 X23.349 Y139.404 E20.4401
G1 X21.598 Y137.369 E20.56511
G1 X19.815 Y135.413 E20.68835
G1 X17.998 Y133.53 E20.8102
G1 X16.075 Y131.645 E20.93559
G1 X14.16 Y129.872 E21.05711
G1 X12.146 Y128.112 E21.18165
G1 X10.115 Y126.435 E21.30429
G1 X8.022 Y124.804 E21.42785
G1 X6.77 Y123.872 E21.50053
G1 X5.356 Y122.837 E21.58212
G1 X4.867 Y122.456 E21.61099
G1 X4.332 Y121.981 E21.6443
G1 X3.853 Y121.45 E21.6776
G1 X3.436 Y120.869 E21.7109
G1 X3.087 Y120.245 E21.74419
G1 X2.809 Y119.585 E21.77754
G1 X2.607 Y118.899 E21.81084
G1 X2.525 Y118.49 E21.83026
G1 X2.389 Y117.675 E21.86874
G1 X2.352 Y117.42 E21.88074
G1 X2.143 Y115.756 E21.95883
G1 X2.116 Y115.498 E21.97091
G1 X1.961 Y113.669 E22.05638
G1 X1.947 Y113.469 E22.06571
G1 X1.912 Y112.812 E22.09635
G1 X1.914 Y112.097 E22.12964
G1 X1.996 Y111.387 E22.16292
G1 X2.156 Y110.69 E22.19622
G1 X2.393 Y110.015 E22.22953
G1 X2.705 Y109.371 E22.26286
G1 X3.086 Y108.765 E22.29619
G1 X3.374 Y108.39 E22.3182
G1 X3.745 Y107.942 E22.34529
G1 X3.903 Y107.759 E22.35655
G1 X4.947 Y106.591 E22.42949
G1 X6.745 Y104.522 E22.55713
G1 X8.43 Y102.466 E22.68091
G1 X10.021 Y100.411 E22.80193
G1 X11.614 Y98.228 E22.92776
G1 X13.107 Y96.055 E23.05053
G1 X14.54 Y93.838 E23.17345
G1 X15.898 Y91.601 E23.2953
G1 X17.22 Y89.277 E23.4198
G1 X18.475 Y86.918 E23.54422
G1 X19.628 Y84.595 E23.66498
G1 X20.756 Y82.151 E23.79032
G1 X21.802 Y79.708 E23.91407
G1 X22.77 Y77.256 E24.03682
G1 X23.672 Y74.76 E24.1604
G1 X24.149 Y73.345 E24.22993
G1 X24.698 Y71.673 E24.31188
G1 X24.91 Y71.087 E24.34089
G1 X25.194 Y70.43 E24.37422
G1 X25.55 Y69.81 E24.40751
G1 X25.973 Y69.233 E24.44083
G1 X26.458 Y68.707 E24.47414
G1 X26.998 Y68.239 E24.50742
G1 X27.587 Y67.833 E24.54073
G1 X27.968 Y67.619 E24.56107
G1 X28.716 Y67.231 E24.60031
G1 X28.947 Y67.117 E24.61231
G1 X30.447 Y66.414 E24.68944
M204 S3000
M205 X10 Y10
G0 F3000 X30.685 Y66.921
M204 S1800
M205 X8 Y8
G1 F2400 X30.895 Y66.827 E24.70016
G1 X32.563 Y66.124 E24.78444
G1 X32.734 Y66.055 E24.79303
G1 X33.389 Y65.803 E24.82571
G1 X34.04 Y65.596 E24.85752
G1 X34.711 Y65.466 E24.88934
G1 X35.392 Y65.415 E24.92114
G1 X36.075 Y65.444 E24.95297
G1 X36.749 Y65.552 E24.98476
G1 X37.459 Y65.757 E25.01917
G1 X37.764 Y65.868 E25.03428
G1 X39.194 Y66.41 E25.10549
G1 X41.689 Y67.274 E25.22844
G1 X44.275 Y68.09 E25.3547
G1 X46.801 Y68.808 E25.47698
G1 X49.408 Y69.472 E25.60225
G1 X52.025 Y70.057 E25.72712
G1 X54.585 Y70.556 E25.84857
G1 X57.253 Y70.997 E25.97449
G1 X59.883 Y71.357 E26.09809
G1 X62.492 Y71.638 E26.22028
G1 X65.173 Y71.851 E26.34551
G1 X67.834 Y71.986 E26.46958
G1 X70.513 Y72.046 E26.59436
G1 X73.151 Y72.032 E26.71719
G1 X75.823 Y71.941 E26.84168
G1 X78.503 Y71.774 E26.96672
G1 X81.112 Y71.538 E27.0887
G1 X83.798 Y71.216 E27.21467
G1 X86.413 Y70.829 E27.33776
G1 X89.037 Y70.364 E27.46185
G1 X91.639 Y69.826 E27.58557
G1 X94.205 Y69.222 E27.70832
G1 X96.79 Y68.533 E27.83289
G1 X99.392 Y67.76 E27.95928
G1 X101.885 Y66.943 E28.08144
G1 X104.4 Y66.04 E28.20587
G1 X106.862 Y65.075 E28.329
G1 X109.336 Y64.023 E28.45419
G1 X111.755 Y62.915 E28.57808
G1 X114.121 Y61.748 E28.70092
G1 X116.506 Y60.486 E28.82657
G1 X118.815 Y59.18 E28.95009
G1 X121.077 Y57.814 E29.07313
G1 X122.821 Y56.694 E29.16965
G1 X124.857 Y55.371 E29.28271
G1 X125.025 Y55.266 E29.29193
G1 X126.762 Y54.22 E29.38635
G1 X127.263 Y53.93 E29.4133
G1 X128.135 Y53.443 E29.45981
G1 X128.782 Y53.102 E29.49387
G1 X129.534 Y52.724 E29.53306
G1 X130.162 Y52.454 E29.56489
G1 X130.816 Y52.259 E29.59667
G1 X131.489 Y52.142 E29.62847
G1 X132.047 Y52.104 E29.65452
G1 X132.73 Y52.119 E29.68633
G1 X133.495 Y52.232 E29.72234
G1 X133.731 Y52.283 E29.73358
G1 X136.408 Y52.823 E29.86074
G1 X139.029 Y53.275 E29.98459
G1 X141.665 Y53.652 E30.10858
G1 X144.295 Y53.954 E30.23185
G1 X146.989 Y54.185 E30.35775
G1 X149.631 Y54.338 E30.48098
G1 X152.266 Y54.415 E30.60373
G1 X154.942 Y54.417 E30.72834
G1 X157.616 Y54.344 E30.85289
G1 X160.286 Y54.196 E30.97741
G1 X162.914 Y53.975 E31.10021
G1 X165.574 Y53.675 E31.22486
G1 X168.191 Y53.305 E31.34793
G1 X170.833 Y52.855 E31.47273
G1 X173.483 Y52.326 E31.59856
G1 X173.963 Y52.223 E31.62141
G1 X174.639 Y52.12 E31.65326
G1 X175.322 Y52.096 E31.68508
G1 X176.002 Y52.152 E31.71685
G1 X176.621 Y52.274 E31.74623
G1 X176.814 Y52.323 E31.7555
G1 X177.465 Y52.529 E31.78729
G1 X178.029 Y52.78 E31.81604
G1 X178.542 Y53.042 E31.84286
G1 X178.827 Y53.191 E31.85784
G1 X179.786 Y53.712 E31.90866
G1 X179.93 Y53.793 E31.91635
G1 X180.966 Y54.396 E31.97217
G1 X182.562 Y55.365 E32.05911
G1 X182.721 Y55.466 E32.06788
G1 X183.253 Y55.813 E32.09745
G1 X183.803 Y56.219 E32.12929
G1 X184.301 Y56.686 E32.16108
G1 X184.815 Y57.31 E32.19872
G1 X184.865 Y57.38 E32.20273
G1 X185.229 Y57.958 E32.23453
G1 X185.523 Y58.575 E32.26636
G1 X185.722 Y59.142 E32.29434
G1 X186.582 Y61.708 E32.42035
G1 X187.506 Y64.223 E32.54512
G1 X188.476 Y66.652 E32.66691
G1 X189.549 Y69.131 E32.79269
G1 X190.686 Y71.569 E32.91795
G1 X191.87 Y73.928 E33.04085
G1 X193.111 Y76.239 E33.163
G1 X194.475 Y78.612 E33.29045
G1 X195.827 Y80.819 E33.41097
G1 X197.303 Y83.083 E33.53681
G1 X198.829 Y85.282 E33.66145
G1 X200.397 Y87.412 E33.7846
G1 X202.041 Y89.518 E33.90901
G1 X203.727 Y91.556 E34.03217
G1 X205.281 Y93.337 E34.14223
G1 X205.946 Y94.082 E34.18873
G1 X206.501 Y94.81 E34.23136
G1 X206.539 Y94.869 E34.23463
G1 X206.874 Y95.464 E34.26642
G1 X207.138 Y96.094 E34.29823
G1 X207.327 Y96.751 E34.33006
G1 X207.463 Y97.757 E34.37733
G1 X207.497 Y98.49 E34.4115
G1 X207.518 Y99.144 E34.44197
G1 X207.546 Y100.873 E34.52249
G1 X207.545 Y101.546 E34.55383
G1 X207.529 Y102.617 E34.6037
G1 X207.506 Y103.179 E34.62989
G1 X207.464 Y103.9 E34.66352
G1 X207.385 Y104.578 E34.69531
G1 X207.226 Y105.243 E34.72715
G1 X207.008 Y105.847 E34.75705
G1 X206.968 Y105.941 E34.7618
G1 X206.664 Y106.553 E34.79362
G1 X206.291 Y107.125 E34.82542
G1 X205.96 Y107.533 E34.84988
G1 X205.067 Y108.538 E34.91249
G1 X203.325 Y110.555 E35.03659
G1 X201.643 Y112.616 E35.16046
G1 X200.022 Y114.721 E35.28417
G1 X198.434 Y116.91 E35.4101
G1 X196.968 Y119.054 E35.53104
G1 X195.506 Y121.329 E35.65696
G1 X194.131 Y123.607 E35.78086
G1 X192.826 Y125.915 E35.90432
G1 X191.576 Y128.279 E36.02884
G1 X190.387 Y130.691 E36.15405
G1 X189.295 Y133.071 E36.27598
G1 X188.252 Y135.53 E36.40036
G1 X187.277 Y138.017 E36.52475
G1 X186.377 Y140.522 E36.64869
G1 X185.822 Y142.188 E36.73046
G1 X185.675 Y142.643 E36.75272
G1 X185.427 Y143.28 E36.78455
G1 X185.106 Y143.883 E36.81636
G1 X184.728 Y144.431 E36.84736
G1 X184.658 Y144.521 E36.85267
G1 X184.208 Y145.035 E36.88448
G1 X183.7 Y145.493 E36.91633
G1 X183.222 Y145.838 E36.94378
G1 X182.633 Y146.219 E36.97644
G1 X182.382 Y146.376 E36.99023
G1 X180.783 Y147.343 E37.07724
G1 X180.311 Y147.616 E37.10263
G1 X179.39 Y148.136 E37.15188
G1 X179.232 Y148.223 E37.16028
G1 X178.593 Y148.557 E37.19385
G1 X177.943 Y148.887 E37.2278
G1 X177.316 Y149.16 E37.25964
G1 X176.663 Y149.359 E37.29143
G1 X175.674 Y149.508 E37.338
G1 X175.534 Y149.517 E37.34453
G1 X174.85 Y149.521 E37.37638
G1 X173.988 Y149.41 E37.41685
G1 X171.3 Y148.86 E37.54461
G1 X168.674 Y148.4 E37.66875
G1 X166.048 Y148.015 E37.79233
G1 X163.4 Y147.704 E37.91648
G1 X160.73 Y147.466 E38.0413
G1 X158.096 Y147.307 E38.16417
G1 X155.423 Y147.221 E38.2887
G1 X152.748 Y147.21 E38.41326
G1 X150.111 Y147.275 E38.53609
G1 X147.44 Y147.416 E38.66064
G1 X144.767 Y147.633 E38.78551
G1 X142.153 Y147.919 E38.90796
G1 X139.501 Y148.286 E39.03262
G1 X136.875 Y148.726 E39.15661
G1 X133.804 Y149.337 E39.30241
G1 X133.493 Y149.404 E39.31722
G1 X132.818 Y149.509 E39.34903
G1 X132.135 Y149.535 E39.38086
