;FLAVOR:Marlin
;TIME:1753
;Filament used: 1.37549m
;Layer height: 0.2
;MINX:0.278
;MINY:51.119
;MINZ:0.2
;MAXX:197
;MAXY:157.843
;MAXZ:0.8
;Generated with Cura_SteamEngine 4.10.0
M140 S60
M105
M190 S60
M104 S200
M105
M109 S200
M82 ;absolute extrusion mode
G21 ;metric values
G90 ;absolute positioning
M82 ;set extruder to absolute mode
M107 ;start with the fan off
G28 X0 Y0 ;move X/Y to min endstops
G28 Z0 ;move Z to min endstops
G1 Z15.0 F100 ;move the platform down 15mm
G92 E0 ;zero the extruded length
G1 F200 E3 ;extrude 3mm of feed stock
G92 E0 ;zero the extruded length again
G1 F100
G0 Y20 F100
M117 Printing...
G5
G92 E0
G92 E0
G1 F2400 E-6
;LAYER_COUNT:4
;LAYER:0
M107
M204 S3000
M205 X10 Y10
G1 F600 Z0.275
G0 F3000 X29.021 Y65.694 Z0.275
M204 S1800
M205 X8 Y8
;TYPE:SKIRT
G1 F600 Z0.2
G1 F2400 E0
G1 X30.735 Y64.971 E0.08662
G1 X30.927 Y64.894 E0.09625
G1 X31.544 Y64.657 E0.12703
G1 X32.225 Y64.438 E0.16034
G1 X32.926 Y64.296 E0.19364
G1 X33.639 Y64.234 E0.22697
G1 X34.354 Y64.252 E0.26027
G1 X35.062 Y64.349 E0.29355
G1 X35.756 Y64.525 E0.32689
G1 X36.195 Y64.68 E0.34857
G1 X36.776 Y64.91 E0.37766
G1 X37.005 Y65.006 E0.38922
G1 X38.405 Y65.624 E0.46048
G1 X40.898 Y66.682 E0.58659
G1 X43.385 Y67.655 E0.71094
G1 X45.852 Y68.542 E0.83302
G1 X48.346 Y69.358 E0.9552
G1 X50.913 Y70.119 E1.07988
G1 X53.454 Y70.795 E1.20231
G1 X56.077 Y71.415 E1.32781
G1 X58.645 Y71.942 E1.44988
G1 X61.226 Y72.398 E1.57193
G1 X63.865 Y72.788 E1.69614
G1 X66.48 Y73.099 E1.81877
G1 X69.118 Y73.338 E1.94211
G1 X71.79 Y73.504 E2.06677
G1 X74.396 Y73.591 E2.18818
G1 X75.971 Y73.609 E2.26152
G1 X77.694 Y73.615 E2.34175
G1 X78.315 Y73.634 E2.37068
G1 X79.027 Y73.701 E2.40398
G1 X79.727 Y73.846 E2.43727
G1 X80.407 Y74.068 E2.47058
G1 X81.058 Y74.365 E2.5039
G1 X81.671 Y74.733 E2.53719
G1 X82.24 Y75.167 E2.57051
G1 X82.575 Y75.475 E2.5917
G1 X83.188 Y76.08 E2.63181
G1 X83.359 Y76.255 E2.6432
G1 X84.474 Y77.443 E2.71907
G1 X84.648 Y77.636 E2.73117
G1 X85.851 Y79.027 E2.8168
G1 X85.989 Y79.193 E2.82685
G1 X86.409 Y79.713 E2.85798
G1 X86.826 Y80.293 E2.89124
G1 X87.177 Y80.917 E2.92458
G1 X87.455 Y81.576 E2.95788
G1 X87.658 Y82.262 E2.9912
G1 X87.784 Y82.966 E3.0245
G1 X87.83 Y83.68 E3.05781
G1 X87.817 Y84.134 E3.07896
G1 X87.779 Y84.741 E3.10728
G1 X87.759 Y84.987 E3.11877
G1 X87.606 Y86.498 E3.18949
G1 X87.366 Y89.238 E3.31757
G1 X87.211 Y91.868 E3.44024
G1 X87.131 Y94.511 E3.56337
G1 X87.124 Y97.155 E3.68648
G1 X87.193 Y99.801 E3.80974
G1 X87.338 Y102.472 E3.93429
G1 X87.553 Y105.069 E4.05563
G1 X87.85 Y107.737 E4.18063
G1 X88.214 Y110.341 E4.30307
G1 X88.653 Y112.932 E4.42543
G1 X89.175 Y115.565 E4.55042
G1 X89.759 Y118.13 E4.67292
G1 X90.418 Y120.685 E4.79578
G1 X91.157 Y123.251 E4.92012
G1 X91.609 Y124.699 E4.99075
G1 X92.147 Y126.375 E5.07272
G1 X92.32 Y126.968 E5.10148
G1 X92.476 Y127.666 E5.13479
G1 X92.554 Y128.377 E5.16809
G1 X92.552 Y129.093 E5.20143
G1 X92.47 Y129.803 E5.23471
G1 X92.309 Y130.5 E5.26802
G1 X92.072 Y131.175 E5.30133
G1 X91.884 Y131.584 E5.32229
G1 X91.511 Y132.328 E5.36105
G1 X91.397 Y132.545 E5.37246
G1 X90.581 Y134.028 E5.45128
G1 X90.45 Y134.256 E5.46352
G1 X89.526 Y135.783 E5.54663
G1 X89.418 Y135.955 E5.55609
G1 X89.044 Y136.531 E5.58807
G1 X88.621 Y137.108 E5.62138
G1 X88.137 Y137.635 E5.6547
G1 X87.597 Y138.104 E5.688
G1 X87.008 Y138.51 E5.72131
G1 X86.378 Y138.848 E5.75461
G1 X85.714 Y139.113 E5.7879
G1 X85.271 Y139.244 E5.80941
G1 X84.696 Y139.392 E5.83705
G1 X84.455 Y139.449 E5.84859
G1 X82.913 Y139.783 E5.92205
G1 X80.29 Y140.388 E6.0474
G1 X77.745 Y141.053 E6.16988
G1 X75.165 Y141.804 E6.295
G1 X72.672 Y142.608 E6.41698
G1 X70.162 Y143.497 E6.54097
G1 X67.707 Y144.444 E6.66349
G1 X65.274 Y145.464 E6.78633
G1 X62.82 Y146.575 E6.91177
G1 X60.488 Y147.71 E7.03253
G1 X58.111 Y148.953 E7.15744
G1 X55.81 Y150.241 E7.28023
G1 X53.524 Y151.604 E7.40416
G1 X51.321 Y153.005 E7.52572
G1 X49.114 Y154.498 E7.6498
G1 X47.867 Y155.382 E7.72097
G1 X46.439 Y156.411 E7.80293
G1 X45.932 Y156.756 E7.83149
G1 X45.317 Y157.122 E7.86481
G1 X44.665 Y157.416 E7.89811
G1 X43.985 Y157.636 E7.93139
G1 X43.284 Y157.779 E7.96471
G1 X42.571 Y157.843 E7.99804
G1 X41.856 Y157.826 E8.03134
G1 X41.411 Y157.775 E8.0522
G1 X40.577 Y157.65 E8.09147
G1 X40.323 Y157.607 E8.10346
G1 X38.687 Y157.294 E8.18103
G1 X38.432 Y157.24 E8.19316
G1 X36.654 Y156.824 E8.27819
G1 X36.449 Y156.772 E8.28804
G1 X35.81 Y156.6 E8.31885
G1 X35.13 Y156.376 E8.35219
G1 X34.48 Y156.077 E8.3855
G1 X33.868 Y155.708 E8.41878
G1 X33.3 Y155.273 E8.45209
G1 X32.785 Y154.777 E8.48539
G1 X32.328 Y154.226 E8.51872
G1 X32.073 Y153.855 E8.53968
G1 X31.734 Y153.322 E8.5691
G1 X31.602 Y153.105 E8.58092
G1 X30.818 Y151.757 E8.65354
G1 X29.472 Y149.517 E8.77522
G1 X28.021 Y147.25 E8.90055
G1 X26.547 Y145.083 E9.02259
G1 X24.977 Y142.912 E9.14734
G1 X23.36 Y140.802 E9.27113
G1 X21.713 Y138.774 E9.39278
G1 X19.992 Y136.773 E9.51568
G1 X18.194 Y134.801 E9.63994
G1 X16.376 Y132.915 E9.76192
G1 X14.453 Y131.031 E9.88727
G1 X12.537 Y129.257 E10.00886
G1 X10.529 Y127.501 E10.13307
G1 X8.508 Y125.831 E10.25515
G1 X6.379 Y124.172 E10.38083
G1 X5.16 Y123.264 E10.4516
G1 X3.75 Y122.232 E10.53297
G1 X3.246 Y121.84 E10.5627
G1 X2.71 Y121.366 E10.59601
G1 X2.229 Y120.836 E10.62934
G1 X1.811 Y120.256 E10.66263
G1 X1.461 Y119.632 E10.69595
G1 X1.182 Y118.974 E10.72923
G1 X0.978 Y118.288 E10.76255
G1 X0.893 Y117.865 E10.78264
G1 X0.748 Y116.996 E10.82367
G1 X0.711 Y116.74 E10.83571
G1 X0.509 Y115.131 E10.91122
G1 X0.482 Y114.874 E10.92325
G1 X0.326 Y113.031 E11.00938
G1 X0.312 Y112.827 E11.0189
G1 X0.278 Y112.181 E11.04902
G1 X0.28 Y111.466 E11.08231
G1 X0.362 Y110.756 E11.1156
G1 X0.523 Y110.059 E11.1489
G1 X0.761 Y109.384 E11.18223
G1 X1.073 Y108.74 E11.21555
G1 X1.454 Y108.135 E11.24885
G1 X1.743 Y107.76 E11.27089
G1 X2.117 Y107.309 E11.29817
G1 X2.271 Y107.129 E11.3092
G1 X3.373 Y105.896 E11.38621
G1 X5.102 Y103.905 E11.50899
G1 X6.79 Y101.847 E11.63293
G1 X8.39 Y99.779 E11.75469
G1 X9.98 Y97.6 E11.88029
G1 X11.468 Y95.433 E12.00269
G1 X12.905 Y93.212 E12.12587
G1 X14.268 Y90.966 E12.2482
G1 X15.59 Y88.644 E12.37262
G1 X16.84 Y86.293 E12.49661
G1 X17.994 Y83.967 E12.61751
G1 X19.128 Y81.511 E12.74348
G1 X20.162 Y79.092 E12.86597
G1 X21.136 Y76.627 E12.98939
G1 X22.033 Y74.146 E13.11223
G1 X22.525 Y72.687 E13.18393
G1 X23.065 Y71.041 E13.26459
G1 X23.276 Y70.458 E13.29346
G1 X23.561 Y69.802 E13.32677
G1 X23.917 Y69.181 E13.3601
G1 X24.34 Y68.605 E13.39338
G1 X24.825 Y68.079 E13.42669
G1 X25.366 Y67.611 E13.46
G1 X25.955 Y67.205 E13.49331
G1 X26.336 Y66.991 E13.51366
G1 X27.112 Y66.589 E13.55435
G1 X27.338 Y66.478 E13.56608
G1 X28.79 Y65.797 E13.64076
G1 X29.021 Y65.694 E13.65253
M204 S3000
M205 X10 Y10
G0 F3000 X29.238 Y66.21
M204 S1800
M205 X8 Y8
G1 F2400 X30.952 Y65.487 E13.73915
G1 X31.128 Y65.416 E13.74799
G1 X31.745 Y65.179 E13.77877
G1 X32.396 Y64.972 E13.81058
G1 X33.067 Y64.842 E13.8424
G1 X33.748 Y64.792 E13.8742
G1 X34.431 Y64.821 E13.90603
G1 X35.105 Y64.93 E13.93782
G1 X35.989 Y65.201 E13.98087
G1 X36.57 Y65.431 E14.00997
G1 X36.779 Y65.519 E14.02053
G1 X38.181 Y66.138 E14.09189
G1 X40.683 Y67.2 E14.21846
G1 X43.169 Y68.173 E14.34277
G1 X45.666 Y69.07 E14.46631
G1 X48.2 Y69.899 E14.59046
G1 X50.744 Y70.654 E14.71403
G1 X53.318 Y71.338 E14.83804
G1 X55.946 Y71.959 E14.96378
G1 X58.538 Y72.491 E15.08699
G1 X61.156 Y72.954 E15.21079
G1 X63.786 Y73.343 E15.33459
G1 X66.433 Y73.658 E15.45871
G1 X69.07 Y73.896 E15.582
G1 X71.736 Y74.062 E15.70638
G1 X74.416 Y74.152 E15.83124
G1 X75.964 Y74.169 E15.90333
G1 X77.692 Y74.175 E15.98379
G1 X78.294 Y74.194 E16.01184
G1 X78.974 Y74.259 E16.04364
G1 X79.642 Y74.403 E16.07546
G1 X80.289 Y74.624 E16.1073
G1 X80.905 Y74.919 E16.1391
G1 X81.482 Y75.284 E16.1709
G1 X82.181 Y75.873 E16.21346
G1 X82.794 Y76.478 E16.25356
G1 X82.95 Y76.638 E16.26397
G1 X84.065 Y77.826 E16.33983
G1 X84.224 Y78.003 E16.35091
G1 X85.427 Y79.394 E16.43655
G1 X85.553 Y79.545 E16.4457
G1 X85.973 Y80.065 E16.47683
G1 X86.371 Y80.62 E16.50863
G1 X86.7 Y81.219 E16.54045
G1 X86.958 Y81.851 E16.57224
G1 X87.14 Y82.51 E16.60407
G1 X87.244 Y83.185 E16.63588
G1 X87.259 Y84.099 E16.67844
G1 X87.221 Y84.706 E16.70676
G1 X87.202 Y84.93 E16.71723
G1 X87.048 Y86.449 E16.78832
G1 X86.808 Y89.191 E16.91649
G1 X86.651 Y91.853 E17.04066
G1 X86.571 Y94.492 E17.1636
G1 X86.564 Y97.167 E17.28816
G1 X86.634 Y99.846 E17.41295
G1 X86.777 Y102.478 E17.53568
G1 X86.997 Y105.142 E17.66015
G1 X87.29 Y107.773 E17.78342
G1 X87.664 Y110.443 E17.90896
G1 X88.107 Y113.06 E18.03255
G1 X88.621 Y115.655 E18.15573
G1 X89.214 Y118.259 E18.28009
G1 X89.876 Y120.827 E18.40358
G1 X90.628 Y123.437 E18.53005
G1 X91.06 Y124.821 E18.59757
G1 X91.614 Y126.546 E18.68193
G1 X91.781 Y127.121 E18.70981
G1 X91.929 Y127.788 E18.74162
G1 X91.998 Y128.468 E18.77345
G1 X91.987 Y129.151 E18.80526
G1 X91.896 Y129.828 E18.83707
G1 X91.727 Y130.49 E18.86888
G1 X91.384 Y131.333 E18.91126
G1 X91.011 Y132.077 E18.95001
G1 X90.907 Y132.275 E18.96043
G1 X90.091 Y133.758 E19.03924
G1 X89.97 Y133.966 E19.05045
G1 X89.046 Y135.493 E19.13356
G1 X88.948 Y135.65 E19.14217
G1 X88.574 Y136.226 E19.17415
G1 X88.169 Y136.777 E19.206
G1 X87.703 Y137.276 E19.23779
G1 X87.181 Y137.717 E19.26961
G1 X86.612 Y138.095 E19.30142
G1 X86.002 Y138.403 E19.33323
G1 X85.132 Y138.702 E19.37607
G1 X84.557 Y138.85 E19.40372
G1 X84.336 Y138.902 E19.41429
G1 X82.751 Y139.245 E19.4898
G1 X80.167 Y139.841 E19.61328
G1 X77.582 Y140.517 E19.7377
G1 X75.014 Y141.265 E19.86225
G1 X72.49 Y142.079 E19.98574
G1 X69.994 Y142.962 E20.10902
G1 X67.485 Y143.93 E20.23424
G1 X65.017 Y144.965 E20.35886
G1 X62.623 Y146.049 E20.48123
G1 X60.219 Y147.219 E20.60572
G1 X57.843 Y148.461 E20.73056
G1 X55.527 Y149.757 E20.85414
G1 X53.256 Y151.112 E20.97728
G1 X50.985 Y152.556 E21.10259
G1 X48.797 Y154.036 E21.2256
G1 X47.543 Y154.925 E21.29717
G1 X46.112 Y155.957 E21.37933
G1 X45.619 Y156.292 E21.40708
G1 X45.031 Y156.639 E21.43887
G1 X44.406 Y156.916 E21.4707
G1 X43.754 Y157.117 E21.50247
G1 X43.082 Y157.241 E21.53429
G1 X42.4 Y157.286 E21.56612
G1 X41.494 Y157.221 E21.60842
G1 X40.66 Y157.096 E21.64768
G1 X40.429 Y157.057 E21.65859
G1 X38.793 Y156.744 E21.73615
G1 X38.56 Y156.694 E21.74725
G1 X36.782 Y156.278 E21.83228
G1 X36.594 Y156.231 E21.8413
G1 X35.955 Y156.059 E21.87211
G1 X35.307 Y155.843 E21.90392
G1 X34.688 Y155.553 E21.93575
G1 X34.108 Y155.193 E21.96754
G1 X33.573 Y154.767 E21.99938
G1 X33.092 Y154.282 E22.03119
G1 X32.545 Y153.554 E22.07359
G1 X32.206 Y153.021 E22.103
G1 X32.086 Y152.823 E22.11378
G1 X31.322 Y151.509 E22.18456
G1 X29.937 Y149.204 E22.30977
G1 X28.496 Y146.952 E22.43427
G1 X27.003 Y144.758 E22.55784
G1 X25.428 Y142.579 E22.68303
G1 X23.813 Y140.472 E22.80665
G1 X22.141 Y138.415 E22.93008
G1 X20.4 Y136.39 E23.05443
G1 X18.598 Y134.413 E23.17899
G1 X16.775 Y132.522 E23.3013
G1 X14.848 Y130.633 E23.42695
G1 X12.891 Y128.821 E23.55114
G1 X10.913 Y127.092 E23.67347
G1 X8.833 Y125.374 E23.79909
G1 X6.737 Y123.74 E23.92284
G1 X5.495 Y122.815 E23.99495
G1 X4.081 Y121.78 E24.07655
G1 X3.592 Y121.4 E24.10538
G1 X3.081 Y120.946 E24.13721
G1 X2.627 Y120.436 E24.16901
G1 X2.235 Y119.877 E24.2008
G1 X1.911 Y119.275 E24.23263
G1 X1.659 Y118.64 E24.26444
G1 X1.446 Y117.773 E24.30602
G1 X1.301 Y116.904 E24.34704
G1 X1.266 Y116.67 E24.35806
G1 X1.064 Y115.061 E24.43357
G1 X1.04 Y114.827 E24.44452
G1 X0.884 Y112.984 E24.53064
G1 X0.871 Y112.798 E24.53933
G1 X0.837 Y112.152 E24.56945
G1 X0.841 Y111.469 E24.60125
G1 X0.925 Y110.791 E24.63306
G1 X1.087 Y110.127 E24.66489
G1 X1.326 Y109.487 E24.6967
G1 X1.638 Y108.879 E24.72852
G1 X2.174 Y108.117 E24.7719
G1 X2.548 Y107.666 E24.79918
G1 X2.689 Y107.502 E24.80926
G1 X3.791 Y106.269 E24.88626
G1 X5.527 Y104.269 E25.00958
G1 X7.236 Y102.187 E25.135
G1 X8.842 Y100.111 E25.25722
G1 X10.417 Y97.952 E25.38166
G1 X11.951 Y95.719 E25.50781
G1 X13.383 Y93.505 E25.63058
G1 X14.747 Y91.256 E25.75306
G1 X16.085 Y88.906 E25.87898
G1 X17.321 Y86.582 E26.00155
G1 X18.517 Y84.171 E26.12687
G1 X19.618 Y81.788 E26.2491
G1 X20.677 Y79.31 E26.37458
G1 X21.675 Y76.785 E26.50101
G1 X22.564 Y74.323 E26.62289
G1 X23.04 Y72.913 E26.69219
G1 X23.597 Y71.216 E26.77536
G1 X23.801 Y70.652 E26.80329
G1 X24.075 Y70.026 E26.8351
G1 X24.42 Y69.436 E26.86693
G1 X24.831 Y68.89 E26.89875
G1 X25.304 Y68.397 E26.93056
G1 X25.831 Y67.962 E26.96238
G1 X26.594 Y67.489 E27.00419
G1 X27.37 Y67.087 E27.04488
G1 X27.576 Y66.985 E27.05558
G1 X29.028 Y66.304 E27.13026
G1 X29.238 Y66.21 E27.14097
M204 S3000
M205 X10 Y10
G0 F3000 X29.456 Y66.726
M204 S1800
M205 X8 Y8
G1 F2400 X31.17 Y66.003 E27.2276
G1 X31.329 Y65.939 E27.23558
G1 X31.946 Y65.702 E27.26635
G1 X32.565 Y65.507 E27.29657
G1 X33.204 Y65.389 E27.32683
G1 X33.853 Y65.351 E27.3571
G1 X34.501 Y65.393 E27.38734
G1 X35.139 Y65.514 E27.41758
G1 X35.782 Y65.722 E27.44905
G1 X36.363 Y65.952 E27.47814
G1 X36.553 Y66.031 E27.48772
G1 X37.99 Y66.665 E27.56086
G1 X40.45 Y67.71 E27.68531
G1 X42.984 Y68.701 E27.81201
G1 X45.48 Y69.598 E27.93551
G1 X48.044 Y70.437 E28.06113
G1 X50.586 Y71.191 E28.18459
G1 X53.189 Y71.883 E28.31001
G1 X55.84 Y72.509 E28.43685
G1 X58.403 Y73.036 E28.55869
G1 X61.08 Y73.508 E28.68526
G1 X63.712 Y73.898 E28.80916
G1 X66.385 Y74.216 E28.9345
G1 X69.017 Y74.454 E29.05756
G1 X71.72 Y74.622 E29.18367
G1 X74.39 Y74.711 E29.30806
G1 X75.958 Y74.729 E29.38108
G1 X77.69 Y74.735 E29.46173
G1 X78.273 Y74.754 E29.48889
G1 X78.92 Y74.817 E29.51916
G1 X79.554 Y74.96 E29.54942
G1 X80.165 Y75.18 E29.57966
G1 X80.745 Y75.472 E29.6099
G1 X81.284 Y75.834 E29.64013
G1 X81.788 Y76.272 E29.67122
G1 X82.401 Y76.877 E29.71133
G1 X82.542 Y77.022 E29.72075
G1 X83.657 Y78.21 E29.79661
G1 X83.801 Y78.369 E29.8066
G1 X85.004 Y79.76 E29.89223
G1 X85.118 Y79.896 E29.9005
G1 X85.538 Y80.416 E29.93162
G1 X85.914 Y80.946 E29.96188
G1 X86.222 Y81.518 E29.99213
G1 X86.458 Y82.123 E30.02237
G1 X86.618 Y82.753 E30.05264
G1 X86.699 Y83.397 E30.08286
G1 X86.7 Y84.064 E30.11392
G1 X86.662 Y84.671 E30.14224
G1 X86.645 Y84.874 E30.15172
G1 X86.49 Y86.4 E30.22315
G1 X86.251 Y89.122 E30.35038
G1 X86.093 Y91.803 E30.47544
G1 X86.011 Y94.51 E30.60154
G1 X86.004 Y97.181 E30.72592
G1 X86.074 Y99.854 E30.85043
G1 X86.219 Y102.52 E30.97475
G1 X86.439 Y105.181 E31.09908
G1 X86.738 Y107.873 E31.2252
G1 X87.107 Y110.51 E31.34919
G1 X87.556 Y113.159 E31.4743
G1 X88.076 Y115.785 E31.59895
G1 X88.667 Y118.379 E31.72283
G1 X89.332 Y120.96 E31.84694
G1 X90.087 Y123.582 E31.97399
G1 X90.527 Y124.992 E32.04277
G1 X91.081 Y126.717 E32.12713
G1 X91.242 Y127.274 E32.15413
G1 X91.381 Y127.909 E32.1844
G1 X91.441 Y128.556 E32.21465
G1 X91.42 Y129.205 E32.24489
G1 X91.32 Y129.847 E32.27515
G1 X91.143 Y130.472 E32.30539
G1 X90.883 Y131.082 E32.33627
G1 X90.51 Y131.826 E32.37502
G1 X90.416 Y132.005 E32.38444
G1 X89.6 Y133.488 E32.46326
G1 X89.491 Y133.676 E32.47337
G1 X88.567 Y135.203 E32.55648
G1 X88.478 Y135.345 E32.56429
G1 X88.104 Y135.921 E32.59626
G1 X87.718 Y136.443 E32.62649
G1 X87.27 Y136.914 E32.65676
G1 X86.768 Y137.326 E32.687
G1 X86.219 Y137.673 E32.71724
G1 X85.631 Y137.951 E32.74753
G1 X84.992 Y138.159 E32.77882
G1 X84.417 Y138.307 E32.80647
G1 X84.218 Y138.355 E32.816
G1 X82.644 Y138.696 E32.89099
G1 X80.002 Y139.305 E33.01724
G1 X77.428 Y139.978 E33.14113
G1 X74.862 Y140.725 E33.26557
G1 X72.308 Y141.549 E33.39053
G1 X69.783 Y142.443 E33.51526
G1 X67.287 Y143.406 E33.63983
G1 X64.807 Y144.445 E33.76504
G1 X62.368 Y145.549 E33.8897
G1 X59.966 Y146.719 E34.01411
G1 X57.601 Y147.955 E34.13837
G1 X55.233 Y149.28 E34.26472
G1 X52.946 Y150.645 E34.38874
G1 X50.689 Y152.08 E34.51328
G1 X48.48 Y153.574 E34.63745
G1 X47.219 Y154.468 E34.70943
G1 X45.784 Y155.503 E34.79181
G1 X45.307 Y155.827 E34.81867
G1 X44.747 Y156.156 E34.84891
G1 X44.15 Y156.413 E34.87917
G1 X43.527 Y156.596 E34.90941
G1 X42.885 Y156.7 E34.93969
G1 X42.236 Y156.725 E34.96994
G1 X41.577 Y156.668 E35.00074
G1 X40.743 Y156.543 E35.04
G1 X40.534 Y156.507 E35.04988
G1 X38.898 Y156.194 E35.12744
G1 X38.687 Y156.149 E35.13749
G1 X36.909 Y155.733 E35.22251
G1 X36.74 Y155.691 E35.23062
G1 X36.101 Y155.519 E35.26144
G1 X35.485 Y155.311 E35.29171
G1 X34.899 Y155.03 E35.32197
