;FLAVOR:UltiGCode
;TIME:13401
;MATERIAL:30257
;MATERIAL2:0
;NOZZLE_DIAMETER:0.4
;MINX:3
;MINY:52.624
;MINZ:0.324
;MAXX:220.006
;MAXY:170.378
;MAXZ:16.244
;Generated with Cura_SteamEngine 4.10.0
M82 ;absolute extrusion mode
G0 F3000 Y50 ;avoid prime blob
G92 E0
G92 E0
G10
;LAYER_COUNT:75
;LAYER:-6
M107
G0 F9000 X33.813 Y68.649 Z0.324
;TYPE:SUPPORT-INTERFACE
G11
G1 F900 X34.293 Y68.426 E0.13719
G1 X35.684 Y67.806 E0.53193
G1 X36.184 Y67.601 E0.672
G1 X36.267 Y67.563 E0.69566
G1 X37.585 Y67.039 E1.06329
G1 X37.716 Y66.989 E1.09964
G1 X38.472 Y66.723 E1.30737
G1 X38.634 Y66.673 E1.35131
G1 X39.379 Y66.478 E1.55092
G1 X39.564 Y66.437 E1.60004
G1 X40.31 Y66.306 E1.79636
G1 X40.495 Y66.281 E1.84475
G1 X41.284 Y66.206 E2.05018
G1 X41.413 Y66.199 E2.08367
G1 X41.971 Y66.185 E2.22834
G1 X42.868 Y66.221 E2.46103
G1 X43.077 Y66.238 E2.51539
G1 X43.793 Y66.326 E2.70237
G1 X44.004 Y66.361 E2.75781
G1 X44.759 Y66.517 E2.95764
G1 X44.919 Y66.557 E3.00039
G1 X45.665 Y66.775 E3.20184
G1 X45.818 Y66.827 E3.24372
G1 X46.465 Y67.071 E3.42295
G1 X47.476 Y67.492 E3.70682
G1 X48.074 Y67.758 E3.87646
G1 X48.996 Y68.186 E4.13994
G1 X49.426 Y68.397 E4.26409
G1 X50.387 Y68.892 E4.54428
G1 X50.961 Y69.203 E4.7135
G1 X51.821 Y69.691 E4.9698
G1 X52.377 Y70.024 E5.13778
G1 X53.115 Y70.485 E5.36333
G1 X53.67 Y70.845 E5.5348
G1 X54.497 Y71.414 E5.79499
G1 X55.067 Y71.823 E5.97683
G1 X55.792 Y72.374 E6.21287
G1 X56.314 Y72.788 E6.38556
G1 X57.118 Y73.46 E6.65716
G1 X57.173 Y73.518 E6.67788
G1 X57.655 Y73.934 E6.84291
G1 X58.334 Y74.56 E7.08229
G1 X58.895 Y75.111 E7.28611
G1 X59.464 Y75.699 E7.49819
G1 X59.554 Y75.8 E7.53326
G1 X59.978 Y76.256 E7.69465
G1 X60.06 Y76.347 E7.7264
G1 X60.639 Y77.015 E7.95554
G1 X61.114 Y77.597 E8.15026
G1 X61.453 Y78.039 E8.29464
G1 X61.891 Y78.546 E8.4683
G1 X62.4 Y79.002 E8.64544
G1 X62.962 Y79.39 E8.82245
G1 X63.568 Y79.704 E8.99936
G1 X64.209 Y79.939 E9.17632
G1 X64.874 Y80.092 E9.35319
G1 X65.554 Y80.159 E9.5303
G1 X66.237 Y80.139 E9.70741
G1 X66.912 Y80.034 E9.88448
G1 X67.571 Y79.843 E10.06232
G1 X68.334 Y79.499 E10.27926
G1 X68.808 Y79.243 E10.41889
G1 X69.555 Y78.872 E10.63508
G1 X69.614 Y78.838 E10.65273
G1 X70.365 Y78.486 E10.86771
G1 X70.966 Y78.224 E11.03765
G1 X72.08 Y77.781 E11.34839
G1 X72.601 Y77.59 E11.49222
G1 X73.375 Y77.327 E11.70411
G1 X74.091 Y77.099 E11.89888
G1 X74.151 Y77.079 E11.91527
G1 X75.143 Y76.796 E12.18266
G1 X75.68 Y76.658 E12.32637
G1 X76.576 Y76.448 E12.56491
G1 X77.341 Y76.284 E12.7677
G1 X78.205 Y76.123 E12.9955
G1 X78.833 Y76.019 E13.1605
G1 X78.899 Y76.007 E13.17789
G1 X79.91 Y75.863 E13.44258
G1 X80.409 Y75.812 E13.5726
G1 X80.641 Y75.779 E13.63334
G1 X81.438 Y75.702 E13.84088
G1 X82.042 Y75.655 E13.99791
G1 X82.172 Y75.643 E14.03175
G1 X83.244 Y75.584 E14.31003
G1 X83.979 Y75.562 E14.50063
G1 X84.892 Y75.548 E14.73731
G1 X85.321 Y75.55 E14.84851
G1 X86.459 Y75.577 E15.14356
G1 X87.298 Y75.631 E15.36148
G1 X87.491 Y75.651 E15.41177
G1 X88.237 Y75.76 E15.60719
G1 X88.423 Y75.796 E15.65629
G1 X89.162 Y75.966 E15.85285
G1 X89.351 Y76.018 E15.90365
G1 X90.068 Y76.246 E16.09867
G1 X90.241 Y76.308 E16.14631
G1 X90.766 Y76.516 E16.29268
G1 X91.581 Y76.904 E16.52664
G1 X91.756 Y76.996 E16.57789
G1 X92.409 Y77.377 E16.77385
G1 X92.554 Y77.469 E16.81836
G1 X93.185 Y77.908 E17.0176
G1 X93.345 Y78.03 E17.06976
G1 X93.927 Y78.511 E17.26546
G1 X94.046 Y78.617 E17.30677
G1 X94.498 Y79.05 E17.46901
G1 X94.6 Y79.152 E17.5064
G1 X95.543 Y80.118 E17.85631
G1 X96.019 Y80.622 E18.036
G1 X97 Y81.71 E18.41572
G1 X97.38 Y82.147 E18.56583
G1 X97.474 Y82.254 E18.60274
G1 X98.413 Y83.386 E18.98396
G1 X98.496 Y83.488 E19.01805
G1 X98.976 Y84.119 E19.22355
G1 X99.079 Y84.266 E19.27007
G1 X99.502 Y84.926 E19.47326
G1 X99.581 Y85.06 E19.51358
G1 X99.951 Y85.754 E19.71744
G1 X100.03 Y85.92 E19.76509
G1 X100.317 Y86.587 E19.9533
G1 X100.394 Y86.784 E20.00812
G1 X100.625 Y87.454 E20.19182
G1 X100.851 Y88.302 E20.41929
G1 X100.93 Y88.697 E20.52371
G1 X101.089 Y89.347 E20.69715
G1 X101.334 Y89.985 E20.8743
G1 X101.657 Y90.587 E21.05138
G1 X102.053 Y91.143 E21.22831
G1 X102.516 Y91.645 E21.40532
G1 X103.039 Y92.083 E21.58214
G1 X103.613 Y92.454 E21.75929
G1 X104.228 Y92.748 E21.93598
G1 X104.876 Y92.963 E22.11295
G1 X105.547 Y93.093 E22.2901
G1 X106.229 Y93.139 E22.46728
G1 X106.91 Y93.098 E22.64411
G1 X107.581 Y92.971 E22.82113
G1 X108.23 Y92.761 E22.99793
G1 X108.846 Y92.471 E23.17441
G1 X109.328 Y92.171 E23.32157
G1 X109.744 Y91.895 E23.45097
G1 X110.644 Y91.326 E23.72696
G1 X111.004 Y91.107 E23.83618
G1 X111.949 Y90.553 E24.12011
G1 X112.574 Y90.213 E24.30453
G1 X113.427 Y89.778 E24.55272
G1 X113.696 Y89.645 E24.6305
G1 X114.905 Y89.066 E24.97796
G1 X115.447 Y88.823 E25.13192
G1 X116.242 Y88.49 E25.35533
G1 X116.915 Y88.232 E25.54215
G1 X117.879 Y87.889 E25.80736
G1 X118.515 Y87.68 E25.98089
G1 X118.715 Y87.62 E26.03501
G1 X119.344 Y87.387 E26.20887
G1 X119.949 Y87.071 E26.38579
G1 X120.509 Y86.681 E26.56267
G1 X121.016 Y86.223 E26.73977
G1 X121.461 Y85.706 E26.91658
G1 X121.837 Y85.136 E27.09357
G1 X122.138 Y84.523 E27.27058
G1 X122.361 Y83.877 E27.44772
G1 X122.499 Y83.208 E27.62478
G1 X122.551 Y82.528 E27.80155
G1 X122.518 Y81.848 E27.97801
G1 X122.418 Y81.26 E28.13261
G1 X122.342 Y80.926 E28.2214
G1 X122.218 Y80.297 E28.38757
G1 X121.969 Y78.856 E28.76661
G1 X121.906 Y78.437 E28.87644
G1 X121.795 Y77.6 E29.09529
G1 X121.731 Y76.991 E29.25401
G1 X121.652 Y76.028 E29.50446
G1 X121.583 Y74.523 E29.89497
G1 X121.572 Y74.003 E30.02978
G1 X121.574 Y72.802 E30.34108
G1 X121.586 Y72.275 E30.47771
G1 X121.626 Y71.383 E30.70915
G1 X121.659 Y70.793 E30.86232
G1 X121.738 Y69.836 E31.11122
G1 X121.788 Y69.345 E31.23914
G1 X121.969 Y67.855 E31.62819
G1 X122.01 Y67.557 E31.70616
G1 X122.169 Y66.476 E31.98937
G1 X122.284 Y65.82 E32.162
G1 X122.453 Y64.985 E32.38282
G1 X122.652 Y64.169 E32.60052
G1 X122.707 Y63.978 E32.65204
G1 X122.934 Y63.299 E32.83761
G1 X123.016 Y63.08 E32.89823
G1 X123.311 Y62.39 E33.09274
G1 X123.384 Y62.236 E33.13691
G1 X123.735 Y61.567 E33.33273
G1 X123.834 Y61.394 E33.3844
G1 X124.245 Y60.742 E33.58417
G1 X124.324 Y60.629 E33.61991
G1 X124.815 Y59.972 E33.8325
G1 X124.92 Y59.842 E33.87582
G1 X125.426 Y59.268 E34.07415
G1 X125.557 Y59.132 E34.1231
G1 X126.103 Y58.605 E34.31979
G1 X126.255 Y58.471 E34.37231
G1 X126.827 Y58.003 E34.56388
G1 X126.985 Y57.884 E34.61515
G1 X127.718 Y57.379 E34.84587
G1 X129.189 Y56.453 E35.29641
G1 X129.622 Y56.192 E35.42745
G1 X131.426 Y55.154 E35.96693
G1 X131.848 Y54.922 E36.09175
G1 X133.245 Y54.195 E36.49995
G1 X133.371 Y54.133 E36.53635
G1 X134.096 Y53.793 E36.74391
G1 X134.237 Y53.734 E36.78353
G1 X134.983 Y53.455 E36.98997
G1 X135.136 Y53.405 E37.03169
G1 X135.88 Y53.195 E37.23207
G1 X136.048 Y53.155 E37.27683
G1 X136.823 Y53.003 E37.48154
G1 X136.981 Y52.977 E37.52305
G1 X137.593 Y52.901 E37.6829
G1 X138.477 Y52.853 E37.91237
G1 X138.691 Y52.85 E37.96784
G1 X139.456 Y52.872 E38.16621
G1 X139.608 Y52.883 E38.20571
G1 X140.384 Y52.969 E38.40808
G1 X140.584 Y52.998 E38.46046
G1 X141.292 Y53.138 E38.64753
G1 X141.507 Y53.19 E38.70487
G1 X142.444 Y53.458 E38.95748
G1 X143.521 Y53.824 E39.25231
G1 X144.062 Y54.025 E39.40191
G1 X145.105 Y54.436 E39.69248
G1 X145.45 Y54.578 E39.78919
G1 X146.586 Y55.067 E40.10976
G1 X146.931 Y55.222 E40.20779
G1 X147.791 Y55.626 E40.45408
G1 X148.287 Y55.874 E40.59781
G1 X149.383 Y56.453 E40.9191
G1 X149.665 Y56.607 E41.00239
G1 X150.484 Y57.069 E41.24612
G1 X150.977 Y57.365 E41.39517
G1 X151.09 Y57.435 E41.42962
G1 X151.994 Y58.011 E41.70746
G1 X152.267 Y58.19 E41.79208
G1 X153.105 Y58.759 E42.05462
G1 X153.688 Y59.181 E42.24117
G1 X153.759 Y59.234 E42.26414
G1 X154.72 Y59.979 E42.57931
G1 X155.078 Y60.268 E42.69857
G1 X155.724 Y60.811 E42.91731
G1 X156.231 Y61.26 E43.09285
G1 X156.521 Y61.531 E43.19573
G1 X157.038 Y61.958 E43.36953
G1 X157.614 Y62.323 E43.54628
G1 X158.233 Y62.614 E43.72357
G1 X158.884 Y62.822 E43.90071
G1 X159.554 Y62.949 E44.07747
G1 X160.236 Y62.989 E44.25455
G1 X160.917 Y62.942 E44.43148
G1 X161.587 Y62.811 E44.60844
G1 X162.235 Y62.596 E44.7854
G1 X162.851 Y62.3 E44.96255
G1 X163.424 Y61.93 E45.13934
G1 X163.894 Y61.537 E45.29814
G1 X164.072 Y61.371 E45.36123
G1 X164.524 Y60.969 E45.51802
G1 X165.491 Y60.156 E45.84548
G1 X165.93 Y59.801 E45.99182
G1 X166.666 Y59.237 E46.23216
G1 X167.146 Y58.888 E46.38599
G1 X168.08 Y58.245 E46.6799
G1 X168.469 Y57.988 E46.80075
G1 X169.372 Y57.416 E47.07781
G1 X169.907 Y57.097 E47.23927
G1 X170.88 Y56.549 E47.52872
G1 X171.132 Y56.411 E47.60319
G1 X172.058 Y55.919 E47.87498
G1 X172.657 Y55.619 E48.04863
G1 X173.469 Y55.237 E48.28122
G1 X173.969 Y55.01 E48.42355
G1 X174.927 Y54.597 E48.69396
G1 X175.3 Y54.443 E48.79856
G1 X176.396 Y54.015 E49.10353
G1 X176.812 Y53.861 E49.21851
G1 X177.864 Y53.499 E49.50688
G1 X177.951 Y53.471 E49.53057
G1 X178.746 Y53.233 E49.74567
G1 X178.904 Y53.192 E49.78798
G1 X179.653 Y53.033 E49.98645
G1 X179.851 Y53 E50.03848
G1 X180.594 Y52.904 E50.23267
G1 X180.776 Y52.888 E50.28002
G1 X181.547 Y52.853 E50.48007
G1 X181.718 Y52.852 E50.5244
G1 X182.694 Y52.893 E50.7776
G1 X182.87 Y52.909 E50.8234
G1 X183.672 Y53.015 E51.03309
G1 X183.853 Y53.045 E51.08065
G1 X184.593 Y53.205 E51.27689
G1 X184.786 Y53.255 E51.32856
G1 X185.501 Y53.472 E51.52224
G1 X185.679 Y53.533 E51.57101
G1 X186.383 Y53.811 E51.7672
G1 X186.56 Y53.889 E51.81734
G1 X187.193 Y54.193 E51.99935
G1 X188.701 Y54.982 E52.44049
G1 X189.452 Y55.415 E52.66519
G1 X189.587 Y55.496 E52.70599
G1 X190.772 Y56.175 E53.06
G1 X191.249 Y56.463 E53.20442
G1 X192.79 Y57.444 E53.67792
G1 X193.5 Y57.937 E53.90197
G1 X193.637 Y58.041 E53.94655
G1 X194.216 Y58.519 E54.14116
G1 X194.357 Y58.645 E54.19017
G1 X194.93 Y59.201 E54.39712
G1 X195.28 Y59.581 E54.53103
G1 X195.377 Y59.693 E54.56944
G1 X195.87 Y60.309 E54.77394
G1 X196.007 Y60.496 E54.83403
G1 X196.415 Y61.102 E55.02339
G1 X196.51 Y61.255 E55.07007
G1 X196.885 Y61.922 E55.2684
G1 X196.964 Y62.078 E55.31373
G1 X197.286 Y62.78 E55.51392
G1 X197.363 Y62.968 E55.56657
G1 X197.613 Y63.656 E55.75631
G1 X197.683 Y63.883 E55.81788
G1 X197.959 Y64.959 E56.10581
G1 X197.983 Y65.063 E56.13348
G1 X198.178 Y66.043 E56.39247
G1 X198.273 Y66.587 E56.53561
G1 X198.484 Y67.979 E56.90054
G1 X198.639 Y69.171 E57.21211
G1 X198.697 Y69.716 E57.35417
G1 X198.78 Y70.729 E57.61762
G1 X198.812 Y71.28 E57.76068
G1 X198.849 Y72.25 E58.01229
G1 X198.857 Y73.031 E58.21473
G1 X198.858 Y74.036 E58.47523
G1 X198.847 Y74.562 E58.6116
G1 X198.807 Y75.456 E58.84355
G1 X198.778 Y76.062 E59.00081
G1 X198.712 Y76.892 E59.21662
G1 X198.638 Y77.576 E59.39495
G1 X198.475 Y78.775 E59.70859
G1 X198.426 Y79.104 E59.79481
G1 X198.253 Y80.162 E60.07268
G1 X198.111 Y80.879 E60.26214
G1 X198.026 Y81.248 E60.36029
G1 X197.915 Y81.908 E60.53376
G1 X197.887 Y82.59 E60.71069
G1 X197.947 Y83.271 E60.88789
G1 X198.091 Y83.938 E61.06475
G1 X198.318 Y84.582 E61.24175
G1 X198.626 Y85.192 E61.41887
G1 X199.007 Y85.758 E61.59572
G1 X199.457 Y86.272 E61.77279
G1 X199.968 Y86.724 E61.94962
G1 X200.531 Y87.11 E62.12656
G1 X201.139 Y87.419 E62.30334
G1 X201.72 Y87.632 E62.46373
G1 X202.563 Y87.899 E62.69294
G1 X203.507 Y88.234 E62.95257
G1 X204.025 Y88.43 E63.09613
G1 X204.185 Y88.494 E63.14079
G1 X205.066 Y88.858 E63.38787
G1 X205.604 Y89.097 E63.54046
G1 X206.602 Y89.568 E63.8265
G1 X207.042 Y89.788 E63.95401
G1 X207.892 Y90.233 E64.2027
G1 X208.353 Y90.487 E64.33913
G1 X209.373 Y91.074 E64.64417
G1 X209.842 Y91.359 E64.78642
G1 X210.648 Y91.872 E65.03406
G1 X210.996 Y92.103 E65.14233
G1 X212.054 Y92.833 E65.4755
G1 X212.468 Y93.133 E65.60802
G1 X213.182 Y93.671 E65.83975
G1 X213.496 Y93.914 E65.94266
G1 X214.586 Y94.789 E66.30496
G1 X214.829 Y94.991 E66.38687
G1 X215.664 Y95.707 E66.67197
G1 X216.245 Y96.247 E66.87757
G1 X216.391 Y96.395 E66.93146
G1 X216.897 Y96.948 E67.12574
G1 X217.021 Y97.095 E67.17559
G1 X217.481 Y97.688 E67.37012
G1 X217.595 Y97.848 E67.42104
G1 X218.025 Y98.507 E67.625
G1 X218.295 Y98.976 E67.76527
G1 X218.332 Y99.045 E67.78557
G1 X218.693 Y99.789 E67.99991
G1 X218.785 Y100 E68.05958
G1 X219.049 Y100.684 E68.24962
G1 X219.108 Y100.855 E68.2965
G1 X219.321 Y101.575 E68.49112
G1 X219.372 Y101.774 E68.54437
G1 X219.532 Y102.536 E68.74619
G1 X219.558 Y102.691 E68.78693
G1 X219.657 Y103.483 E68.99381
G1 X219.697 Y104.086 E69.15045
G1 X219.774 Y106.36 E69.74021
G1 X219.781 Y106.813 E69.85764
G1 X219.781 Y108.535 E70.30398
G1 X219.769 Y109.064 E70.44114
G1 X219.7 Y110.578 E70.83397
G1 X219.627 Y111.419 E71.05278
G1 X219.605 Y111.594 E71.0985
G1 X219.483 Y112.324 E71.29034
G1 X219.441 Y112.522 E71.3428
G1 X219.257 Y113.247 E71.53668
G1 X219.195 Y113.448 E71.5912
G1 X218.818 Y114.505 E71.88208
G1 X218.738 Y114.694 E71.93527
G1 X218.401 Y115.41 E72.14039
G1 X218.297 Y115.609 E72.19859
G1 X217.934 Y116.243 E72.38795
G1 X217.836 Y116.398 E72.43549
G1 X217.398 Y117.037 E72.63629
G1 X217.299 Y117.169 E72.67906
G1 X216.809 Y117.77 E72.88005
G1 X216.691 Y117.903 E72.92614
G1 X216.14 Y118.477 E73.13237
G1 X215.737 Y118.852 E73.27506
G1 X214.824 Y119.651 E73.58953
G1 X214.483 Y119.936 E73.70472
G1 X213.758 Y120.521 E73.94619
G1 X213.498 Y120.724 E74.03169
G1 X212.421 Y121.542 E74.38224
G1 X211.893 Y121.921 E74.5507
G1 X211.11 Y122.454 E74.79622
G1 X210.807 Y122.653 E74.89018
G1 X209.739 Y123.331 E75.21807
G1 X209.378 Y123.551 E75.32765
G1 X208.433 Y124.1 E75.61093
G1 X208.02 Y124.33 E75.73346
G1 X207.077 Y124.83 E76.01012
G1 X206.518 Y125.107 E76.17183
G1 X205.624 Y125.519 E76.42698
G1 X205.186 Y125.712 E76.55104
G1 X203.993 Y126.208 E76.88592
G1 X203.613 Y126.356 E76.99163
G1 X202.672 Y126.706 E77.25186
G1 X202.011 Y126.929 E77.43268
G1 X201.676 Y127.033 E77.5236
G1 X201.05 Y127.27 E77.6971
G1 X200.446 Y127.59 E77.87427
G1 X199.888 Y127.984 E78.05132
G1 X199.385 Y128.445 E78.22817
G1 X198.944 Y128.967 E78.4053
G1 X198.572 Y129.539 E78.58216
G1 X198.276 Y130.154 E78.75907
G1 X198.059 Y130.801 E78.93595
G1 X197.925 Y131.471 E79.11305
G1 X197.877 Y132.152 E79.29001
G1 X197.916 Y132.831 E79.46629
G1 X198.009 Y133.37 E79.60807
G1 X198.205 Y134.282 E79.84986
G1 X198.352 Y135.088 E80.06222
G1 X198.431 Y135.584 E80.1924
G1 X198.631 Y136.992 E80.56102
G1 X198.714 Y137.716 E80.74991
G1 X198.775 Y138.456 E80.94237
G1 X198.847 Y140.044 E81.3544
G1 X198.859 Y140.592 E81.49647
G1 X198.857 Y141.759 E81.79896
G1 X198.843 Y142.306 E81.94079
G1 X198.802 Y143.228 E82.18001
G1 X198.793 Y143.36 E82.2143
G1 X198.766 Y143.971 E82.37283
G1 X198.718 Y144.529 E82.518
G1 X198.676 Y144.951 E82.62792
G1 X198.48 Y146.636 E83.06762
G1 X198.413 Y147.117 E83.19349
G1 X198.279 Y147.978 E83.41935
G1 X198.229 Y148.276 E83.49767
G1 X198.012 Y149.457 E83.80891
G1 X197.833 Y150.253 E84.02039
G1 X197.779 Y150.452 E84.07383
G1 X197.553 Y151.174 E84.26993
G1 X197.496 Y151.336 E84.31444
G1 X197.212 Y152.037 E84.51049
G1 X197.121 Y152.235 E84.56697
G1 X196.583 Y153.258 E84.86657
G1 X196.481 Y153.434 E84.91929
G1 X196.04 Y154.102 E85.12677
G1 X195.918 Y154.272 E85.181
G1 X195.454 Y154.864 E85.37597
G1 X195.33 Y155.011 E85.42581
G1 X194.821 Y155.559 E85.61968
G1 X194.673 Y155.706 E85.67374
G1 X194.126 Y156.208 E85.86618
G1 X193.982 Y156.33 E85.9151
G1 X193.377 Y156.8 E86.11368
G1 X193.233 Y156.903 E86.15957
G1 X192.667 Y157.279 E86.3357
G1 X191.223 Y158.179 E86.77673
G1 X190.926 Y158.358 E86.86661
G1 X189.171 Y159.381 E87.39315
G1 X188.723 Y159.63 E87.526
G1 X187.202 Y160.43 E87.97145
G1 X187.141 Y160.461 E87.98919
G1 X186.408 Y160.808 E88.19939
G1 X186.211 Y160.892 E88.25491
G1 X185.524 Y161.152 E88.4453
G1 X185.317 Y161.22 E88.50178
G1 X184.614 Y161.422 E88.69137
G1 X184.413 Y161.471 E88.74499
G1 X183.677 Y161.619 E88.93958
G1 X183.504 Y161.646 E88.98497
G1 X182.418 Y161.759 E89.26798
G1 X182.272 Y161.768 E89.30589
G1 X181.449 Y161.779 E89.51923
G1 X181.256 Y161.773 E89.56928
G1 X180.508 Y161.721 E89.76363
G1 X180.316 Y161.7 E89.8137
G1 X179.573 Y161.587 E90.0085
G1 X179.38 Y161.549 E90.05948
G1 X178.614 Y161.367 E90.26356
G1 X178.495 Y161.333 E90.29564
G1 X177.943 Y161.161 E90.4455
G1 X177.822 Y161.121 E90.47853
G1 X176.754 Y160.75 E90.77158
G1 X176.297 Y160.583 E90.8977
G1 X175.505 Y160.279 E91.11759
